( Drill import by GRBL-Plotter )
( Source: C:\Users\Sven_User\GMX Mediacenter\Aktuell\GRBL\__Test_Data\Drill_RS485_smd1.drd )
( G-Code lines: 74 )
( Pen Down/Up : 23 times )
( Duration ca.: 0.5 min. )
( Conv. time  : 00:00:00.0012756 )
F1000 (Setup - GCode-Header)
M3 S100 (Start spindle - Option Z-Axis)
G04 P1 
G00 Z2.000 (Drill Start )
 
( T01 tool change not enabled)
G00 X23.178 Y26.962  
G01 Z-1.200 F500 
G00 Z2.000 
G00 X24.448 Y25.057  
G01 Z-1.200 F500 
G00 Z2.000 
G00 X25.718 Y26.962  
G01 Z-1.200 F500 
G00 Z2.000 
 
( T02 tool change not enabled)
G00 X18.733 Y6.325  
G01 Z-1.200 F500 
G00 Z2.000 
G00 X18.733 Y11.405  
G01 Z-1.200 F500 
G00 Z2.000 
G00 X21.273 Y11.405  
G01 Z-1.200 F500 
G00 Z2.000 
G00 X26.353 Y11.405  
G01 Z-1.200 F500 
G00 Z2.000 
G00 X28.258 Y19.025  
G01 Z-1.200 F500 
G00 Z2.000 
G00 X28.258 Y21.565  
G01 Z-1.200 F500 
G00 Z2.000 
G00 X18.733 Y21.565  
G01 Z-1.200 F500 
G00 Z2.000 
G00 X18.733 Y26.645  
G01 Z-1.200 F500 
G00 Z2.000 
 
( T03 tool change not enabled)
G00 X18.733 Y32.360  
G01 Z-1.200 F500 
G00 Z2.000 
G00 X21.273 Y32.360  
G01 Z-1.200 F500 
G00 Z2.000 
G00 X23.813 Y32.360  
G01 Z-1.200 F500 
G00 Z2.000 
G00 X26.353 Y32.360  
G01 Z-1.200 F500 
G00 Z2.000 
G00 X28.893 Y32.360  
G01 Z-1.200 F500 
G00 Z2.000 
G00 X18.733 Y19.025  
G01 Z-1.200 F500 
G00 Z2.000 
G00 X18.733 Y16.485  
G01 Z-1.200 F500 
G00 Z2.000 
G00 X18.733 Y13.945  
G01 Z-1.200 F500 
G00 Z2.000 
G00 X21.273 Y3.785  
G01 Z-1.200 F500 
G00 Z2.000 
G00 X23.813 Y3.785  
G01 Z-1.200 F500 
G00 Z2.000 
G00 X26.353 Y3.785  
G01 Z-1.200 F500 
G00 Z2.000 
G00 X28.893 Y3.785  
G01 Z-1.200 F500 
G00 Z2.000 
M05 (Stop spindle - Option Z-Axis)
G0X0Y0 (Setup - GCode-Footer)
M30
