( SVG import by GRBL-Plotter )
( Source: _misc\test_svg\grbl.svg )
( G-Code lines: 267 )
( Pen Down/Up : 4 times )
( Path length : 0.0 units )
( Duration ca.: 0.4 min. )
( Conv. time  : 00:00:00.1685918 )
( Tool changes: 1)
( 1) ToolNr: 12, Name: (schwarz (46)))
G90 G1 F1000 (Setup - GCode-Header)
M3 S1000 (Start spindle - Option Z-Axis)
G00 Z5.000 (SVG Start )
M05 (Stop spindle - Option Z-Axis)
T12 M06 (schwarz (46))
M3 S1000 (Start spindle - Option Z-Axis)
G00 Z5.000 (m)
G00 X13.890 Y24.022  (m)
G01 Z-3.000 F1000 (c)
G01 X12.860 Y24.099 F2000 (c)
G01 X11.869 Y24.324  (c)
G01 X10.932 Y24.689  (c)
G01 X10.061 Y25.183  (c)
G01 X9.271 Y25.797  (c)
G01 X8.576 Y26.524  (c)
G01 X7.988 Y27.352  (c)
G01 X7.523 Y28.274  (c)
G01 X7.200 Y29.255  (c)
G01 X7.029 Y30.256  (c)
G01 X7.007 Y31.261  (c)
G01 X7.131 Y32.254  (c)
G01 X7.397 Y33.218  (c)
G01 X7.802 Y34.139  (c)
G01 X8.343 Y34.998  (c)
G01 X9.017 Y35.781  (c)
G01 X9.800 Y36.454  (c)
G01 X10.660 Y36.995  (c)
G01 X11.581 Y37.400  (c)
G01 X12.546 Y37.666  (c)
G01 X13.539 Y37.789  (c)
G01 X14.545 Y37.767  (c)
G01 X15.547 Y37.597  (c)
G01 X16.528 Y37.274  (c)
G01 X17.450 Y36.809  (c)
G01 X18.279 Y36.222  (c)
G01 X19.006 Y35.526  (c)
G01 X19.621 Y34.737  (c)
G01 X20.115 Y33.867  (c)
G01 X20.480 Y32.930  (c)
G01 X20.705 Y31.940  (c)
G01 X20.783 Y30.910  (c)
G01 X20.783 Y13.882  (l)
G01 X20.642 Y12.494  (c)
G01 X20.241 Y11.201  (c)
G01 X19.605 Y10.031  (c)
G01 X18.764 Y9.011  (c)
G01 X17.744 Y8.170  (c)
G01 X16.573 Y7.535  (c)
G01 X15.279 Y7.134  (c)
G01 X13.890 Y6.994  (c)
G01 X13.196 Y6.924  (c)
G01 X12.549 Y6.723  (c)
G01 X11.964 Y6.405  (c)
G01 X11.455 Y5.984  (c)
G01 X11.034 Y5.475  (c)
G01 X10.717 Y4.890  (c)
G01 X10.516 Y4.244  (c)
G01 X10.446 Y3.550  (c)
G01 X10.516 Y2.856  (c)
G01 X10.717 Y2.210  (c)
G01 X11.034 Y1.625  (c)
G01 X11.455 Y1.115  (c)
G01 X11.964 Y0.694  (c)
G01 X12.549 Y0.377  (c)
G01 X13.196 Y0.176  (c)
G01 X13.890 Y0.106  (c)
G01 X16.668 Y0.385  (c)
G01 X19.256 Y1.188  (c)
G01 X21.597 Y2.458  (c)
G01 X23.637 Y4.141  (c)
G01 X25.321 Y6.180  (c)
G01 X26.592 Y8.520  (c)
G01 X27.395 Y11.106  (c)
G01 X27.675 Y13.882  (c)
G01 X27.675 Y30.910  (l)
G01 X27.520 Y32.969  (c)
G01 X27.070 Y34.950  (c)
G01 X26.341 Y36.824  (c)
G01 X25.352 Y38.564  (c)
G01 X24.121 Y40.143  (c)
G01 X22.668 Y41.533  (c)
G01 X21.010 Y42.707  (c)
G01 X19.165 Y43.638  (c)
G01 X17.203 Y44.283  (c)
G01 X15.200 Y44.625  (c)
G01 X13.188 Y44.669  (c)
G01 X11.201 Y44.422  (c)
G01 X9.271 Y43.890  (c)
G01 X7.430 Y43.080  (c)
G01 X5.710 Y41.998  (c)
G01 X4.144 Y40.651  (c)
G01 X2.796 Y39.086  (c)
G01 X1.713 Y37.367  (c)
G01 X0.903 Y35.527  (c)
G01 X0.371 Y33.597  (c)
G01 X0.124 Y31.612  (c)
G01 X0.168 Y29.601  (c)
G01 X0.509 Y27.599  (c)
G01 X1.155 Y25.638  (c)
G01 X2.086 Y23.794  (c)
G01 X3.261 Y22.137  (c)
G01 X4.652 Y20.685  (c)
G01 X6.232 Y19.455  (c)
G01 X7.973 Y18.467  (c)
G01 X9.848 Y17.738  (c)
G01 X11.830 Y17.288  (c)
G01 X13.890 Y17.133  (c)
G01 X17.336 Y17.133  (l)
G01 X20.783 Y20.578  (l)
G01 X17.336 Y24.022  (l)
G01 X13.890 Y24.022  (l)
G00 Z5.000 (End path)
G00 X31.024 Y30.910  (m)
G01 Z-3.000 F1000 (m)
G01 X31.024 Y20.578 F2000 (m)
G01 X31.094 Y19.884  (c)
G01 X31.295 Y19.237  (c)
G01 X31.613 Y18.652  (c)
G01 X32.034 Y18.142  (c)
G01 X32.544 Y17.722  (c)
G01 X33.129 Y17.404  (c)
G01 X33.776 Y17.203  (c)
G01 X34.471 Y17.133  (c)
G01 X35.165 Y17.203  (c)
G01 X35.812 Y17.404  (c)
G01 X36.397 Y17.722  (c)
G01 X36.907 Y18.142  (c)
G01 X37.328 Y18.652  (c)
G01 X37.646 Y19.237  (c)
G01 X37.847 Y19.884  (c)
G01 X37.917 Y20.578  (c)
G01 X37.917 Y30.910  (l)
G01 X38.057 Y32.298  (c)
G01 X38.458 Y33.591  (c)
G01 X39.094 Y34.761  (c)
G01 X39.935 Y35.781  (c)
G01 X40.955 Y36.622  (c)
G01 X42.126 Y37.257  (c)
G01 X43.420 Y37.658  (c)
G01 X44.809 Y37.798  (c)
G01 X50.026 Y37.798  (l)
G01 X50.026 Y44.687  (l)
G01 X44.809 Y44.687  (l)
G01 X42.031 Y44.407  (c)
G01 X39.443 Y43.604  (c)
G01 X37.102 Y42.334  (c)
G01 X35.062 Y40.652  (c)
G01 X33.379 Y38.613  (c)
G01 X32.108 Y36.273  (c)
G01 X31.304 Y33.687  (c)
G01 X31.024 Y30.910  (c)
G00 Z5.000 (End path)
G00 X65.486 Y44.687  (m)
G01 Z-3.000 F1000 (m)
G01 X60.268 Y44.687 F2000 (m)
G01 X60.268 Y37.798  (m)
G01 X65.486 Y37.798  (m)
G01 X66.516 Y37.721  (c)
G01 X67.507 Y37.496  (c)
G01 X68.444 Y37.132  (c)
G01 X69.315 Y36.637  (c)
G01 X70.105 Y36.023  (c)
G01 X70.800 Y35.296  (c)
G01 X71.388 Y34.468  (c)
G01 X71.853 Y33.546  (c)
G01 X72.176 Y32.565  (c)
G01 X72.347 Y31.564  (c)
G01 X72.369 Y30.559  (c)
G01 X72.245 Y29.566  (c)
G01 X71.979 Y28.602  (c)
G01 X71.574 Y27.682  (c)
G01 X71.033 Y26.822  (c)
G01 X70.359 Y26.040  (c)
G01 X69.576 Y25.366  (c)
G01 X68.716 Y24.825  (c)
G01 X67.795 Y24.420  (c)
G01 X66.830 Y24.154  (c)
G01 X65.837 Y24.031  (c)
G01 X64.831 Y24.053  (c)
G01 X63.830 Y24.223  (c)
G01 X62.848 Y24.546  (c)
G01 X61.926 Y25.011  (c)
G01 X61.097 Y25.599  (c)
G01 X60.370 Y26.294  (c)
G01 X59.755 Y27.083  (c)
G01 X59.261 Y27.953  (c)
G01 X58.896 Y28.890  (c)
G01 X58.671 Y29.880  (c)
G01 X58.594 Y30.910  (c)
G01 X58.594 Y58.270  (l)
G01 X55.147 Y61.715  (l)
G01 X51.701 Y58.270  (l)
G01 X51.701 Y30.910  (l)
G01 X51.856 Y28.851  (c)
G01 X52.306 Y26.870  (c)
G01 X53.036 Y24.996  (c)
G01 X54.024 Y23.256  (c)
G01 X55.255 Y21.677  (c)
G01 X56.708 Y20.287  (c)
G01 X58.366 Y19.113  (c)
G01 X60.211 Y18.182  (c)
G01 X62.173 Y17.537  (c)
G01 X64.176 Y17.195  (c)
G01 X66.188 Y17.151  (c)
G01 X68.175 Y17.399  (c)
G01 X70.105 Y17.930  (c)
G01 X71.946 Y18.740  (c)
G01 X73.666 Y19.822  (c)
G01 X75.232 Y21.169  (c)
G01 X76.580 Y22.734  (c)
G01 X77.663 Y24.453  (c)
G01 X78.473 Y26.293  (c)
G01 X79.005 Y28.223  (c)
G01 X79.252 Y30.209  (c)
G01 X79.208 Y32.219  (c)
G01 X78.867 Y34.221  (c)
G01 X78.221 Y36.182  (c)
G01 X77.290 Y38.026  (c)
G01 X76.115 Y39.683  (c)
G01 X74.724 Y41.135  (c)
G01 X73.144 Y42.365  (c)
G01 X71.403 Y43.353  (c)
G01 X69.528 Y44.082  (c)
G01 X67.546 Y44.532  (c)
G01 X65.486 Y44.687  (c)
G00 Z5.000 (End path)
G00 X89.512 Y30.910  (m)
G01 Z-3.000 F1000 (m)
G01 X89.512 Y58.270 F2000 (m)
G01 X89.442 Y58.964  (c)
G01 X89.241 Y59.611  (c)
G01 X88.924 Y60.196  (c)
G01 X88.503 Y60.706  (c)
G01 X87.993 Y61.126  (c)
G01 X87.408 Y61.444  (c)
G01 X86.761 Y61.645  (c)
G01 X86.066 Y61.715  (c)
G01 X85.372 Y61.645  (c)
G01 X84.725 Y61.444  (c)
G01 X84.139 Y61.126  (c)
G01 X83.629 Y60.706  (c)
G01 X83.209 Y60.196  (c)
G01 X82.891 Y59.611  (c)
G01 X82.690 Y58.964  (c)
G01 X82.620 Y58.270  (c)
G01 X82.620 Y30.910  (l)
G01 X82.900 Y28.134  (c)
G01 X83.703 Y25.548  (c)
G01 X84.974 Y23.207  (c)
G01 X86.657 Y21.169  (c)
G01 X88.697 Y19.486  (c)
G01 X91.039 Y18.216  (c)
G01 X93.626 Y17.413  (c)
G01 X96.405 Y17.133  (c)
G01 X99.851 Y20.578  (L)
G01 X96.405 Y24.022  (L)
G01 X95.015 Y24.162  (c)
G01 X93.722 Y24.563  (c)
G01 X92.551 Y25.198  (c)
G01 X91.531 Y26.039  (c)
G01 X90.689 Y27.059  (c)
G01 X90.054 Y28.229  (c)
G01 X89.652 Y29.522  (c)
G01 X89.512 Y30.910  (c)
G01 X89.512 Y30.910  (z)
G00 Z5.000 (Z)
M05 (Stop spindle - Option Z-Axis)
G0X0Y0 (Setup - GCode-Footer)
M30 (Program end)
