( Use case:  )
( SVG import by GRBL-Plotter )
( Source: data\examples\graphic_grbl.svg )
( Title : Grbl logo with colors )
( Description : Example for grouping )
( G-Code lines: 377 )
( Pen Down/Up : 4 times )
( Duration ca.: 0.9 min. )
( Conv. time  : 00:00:00.0611140 )
F1000 (Setup - GCode-Header)
G00 Z2.000
M3 S100 
G04 P1 

(<Group Id="1" Layer="g21" CodeSize="9680" CodeArea="6145">)
(<Figure Id="1" Id="path_g" Color="#00ff00" ToolNr="5"> )
G00 X13.890 Y24.020  
G01 Z-1.000 F500 
G01 X13.200 Y24.054 F800 (c)
G01 X12.525 Y24.156  (c)
G01 X11.869 Y24.322  (c)
G01 X11.238 Y24.550  (c)
G01 X10.633 Y24.837  (c)
G01 X10.061 Y25.181  (c)
G01 X9.525 Y25.578  (c)
G01 X9.028 Y26.026  (c)
G01 X8.576 Y26.522  (c)
G01 X8.171 Y27.063  (c)
G01 X7.819 Y27.647  (c)
G01 X7.523 Y28.272  (c)
G01 X7.290 Y28.923  (c)
G01 X7.126 Y29.585  (c)
G01 X7.029 Y30.253  (c)
G01 X6.998 Y30.924  (c)
G01 X7.032 Y31.592  (c)
G01 X7.131 Y32.251  (c)
G01 X7.292 Y32.899  (c)
G01 X7.516 Y33.528  (c)
G01 X7.802 Y34.136  (c)
G01 X8.148 Y34.717  (c)
G01 X8.553 Y35.266  (c)
G01 X9.017 Y35.778  (c)
G01 X9.530 Y36.242  (c)
G01 X10.079 Y36.647  (c)
G01 X10.660 Y36.992  (c)
G01 X11.268 Y37.278  (c)
G01 X11.898 Y37.502  (c)
G01 X12.546 Y37.663  (c)
G01 X13.206 Y37.762  (c)
G01 X13.874 Y37.796  (c)
G01 X14.545 Y37.765  (c)
G01 X15.214 Y37.668  (c)
G01 X15.877 Y37.504  (c)
G01 X16.528 Y37.271  (c)
G01 X17.153 Y36.975  (c)
G01 X17.737 Y36.623  (c)
G01 X18.279 Y36.219  (c)
G01 X18.776 Y35.767  (c)
G01 X19.224 Y35.271  (c)
G01 X19.621 Y34.735  (c)
G01 X19.965 Y34.163  (c)
G01 X20.252 Y33.559  (c)
G01 X20.480 Y32.927  (c)
G01 X20.646 Y32.272  (c)
G01 X20.748 Y31.598  (c)
G01 X20.783 Y30.908  (c)
G01 X20.783 Y13.881  
G01 X20.720 Y12.946  (c)
G01 X20.536 Y12.050  (c)
G01 X20.241 Y11.200  (c)
G01 X19.842 Y10.404  (c)
G01 X19.346 Y9.672  (c)
G01 X18.764 Y9.010  (c)
G01 X18.102 Y8.428  (c)
G01 X17.369 Y7.933  (c)
G01 X16.573 Y7.534  (c)
G01 X15.723 Y7.239  (c)
G01 X14.826 Y7.056  (c)
G01 X13.890 Y6.993  (c)
G01 X13.423 Y6.961  (c)
G01 X12.975 Y6.869  (c)
G01 X12.550 Y6.722  (c)
G01 X12.152 Y6.522  (c)
G01 X11.785 Y6.275  (c)
G01 X11.455 Y5.983  (c)
G01 X11.164 Y5.653  (c)
G01 X10.916 Y5.286  (c)
G01 X10.717 Y4.889  (c)
G01 X10.569 Y4.464  (c)
G01 X10.477 Y4.016  (c)
G01 X10.446 Y3.549  (c)
G01 X10.477 Y3.082  (c)
G01 X10.569 Y2.634  (c)
G01 X10.717 Y2.209  (c)
G01 X10.916 Y1.811  (c)
G01 X11.164 Y1.445  (c)
G01 X11.455 Y1.114  (c)
G01 X11.785 Y0.823  (c)
G01 X12.152 Y0.576  (c)
G01 X12.550 Y0.376  (c)
G01 X12.975 Y0.228  (c)
G01 X13.423 Y0.137  (c)
G01 X13.890 Y0.105  (c)
G01 X15.761 Y0.231  (c)
G01 X17.555 Y0.597  (c)
G01 X19.256 Y1.187  (c)
G01 X20.848 Y1.986  (c)
G01 X22.314 Y2.975  (c)
G01 X23.637 Y4.140  (c)
G01 X24.803 Y5.463  (c)
G01 X25.793 Y6.928  (c)
G01 X26.592 Y8.519  (c)
G01 X27.182 Y10.219  (c)
G01 X27.549 Y12.011  (c)
G01 X27.675 Y13.881  (c)
G01 X27.675 Y30.908  
G01 X27.606 Y32.288  (c)
G01 X27.402 Y33.637  (c)
G01 X27.070 Y34.947  (c)
G01 X26.613 Y36.210  (c)
G01 X26.039 Y37.417  (c)
G01 X25.352 Y38.561  (c)
G01 X24.557 Y39.633  (c)
G01 X23.661 Y40.626  (c)
G01 X22.668 Y41.530  (c)
G01 X21.584 Y42.339  (c)
G01 X20.415 Y43.043  (c)
G01 X19.165 Y43.635  (c)
G01 X17.863 Y44.099  (c)
G01 X16.538 Y44.428  (c)
G01 X15.200 Y44.622  (c)
G01 X13.858 Y44.684  (c)
G01 X12.522 Y44.615  (c)
G01 X11.201 Y44.419  (c)
G01 X9.906 Y44.095  (c)
G01 X8.646 Y43.647  (c)
G01 X7.430 Y43.077  (c)
G01 X6.268 Y42.386  (c)
G01 X5.169 Y41.575  (c)
G01 X4.144 Y40.648  (c)
G01 X3.216 Y39.624  (c)
G01 X2.405 Y38.526  (c)
G01 X1.713 Y37.364  (c)
G01 X1.143 Y36.149  (c)
G01 X0.694 Y34.889  (c)
G01 X0.371 Y33.595  (c)
G01 X0.174 Y32.275  (c)
G01 X0.106 Y30.940  (c)
G01 X0.168 Y29.599  (c)
G01 X0.362 Y28.262  (c)
G01 X0.690 Y26.937  (c)
G01 X1.155 Y25.636  (c)
G01 X1.747 Y24.387  (c)
G01 X2.452 Y23.219  (c)
G01 X3.261 Y22.135  (c)
G01 X4.166 Y21.143  (c)
G01 X5.159 Y20.248  (c)
G01 X6.232 Y19.454  (c)
G01 X7.377 Y18.767  (c)
G01 X8.585 Y18.193  (c)
G01 X9.848 Y17.737  (c)
G01 X11.159 Y17.404  (c)
G01 X12.509 Y17.201  (c)
G01 X13.890 Y17.132  (c)
G01 X17.336 Y17.132  
G01 X20.783 Y20.576  
G01 X17.336 Y24.020  
G01 X13.890 Y24.020  
G00 Z2.000 
(</Figure>)
(<Figure Id="2" Id="path_r" Color="#ff0000" ToolNr="6"> )
G00 X31.024 Y30.908  
G01 Z-1.000 F500 
G01 X31.024 Y20.576 F800 
G01 X31.056 Y20.109  (c)
G01 X31.148 Y19.660  (c)
G01 X31.295 Y19.235  (c)
G01 X31.495 Y18.838  (c)
G01 X31.743 Y18.471  (c)
G01 X32.034 Y18.141  (c)
G01 X32.365 Y17.849  (c)
G01 X32.731 Y17.602  (c)
G01 X33.129 Y17.403  (c)
G01 X33.555 Y17.255  (c)
G01 X34.003 Y17.163  (c)
G01 X34.471 Y17.132  (c)
G01 X34.938 Y17.163  (c)
G01 X35.387 Y17.255  (c)
G01 X35.812 Y17.403  (c)
G01 X36.210 Y17.602  (c)
G01 X36.576 Y17.849  (c)
G01 X36.907 Y18.141  (c)
G01 X37.199 Y18.471  (c)
G01 X37.446 Y18.838  (c)
G01 X37.646 Y19.235  (c)
G01 X37.794 Y19.660  (c)
G01 X37.885 Y20.109  (c)
G01 X37.917 Y20.576  (c)
G01 X37.917 Y30.908  
G01 X37.980 Y31.842  (c)
G01 X38.163 Y32.739  (c)
G01 X38.458 Y33.589  (c)
G01 X38.858 Y34.384  (c)
G01 X39.353 Y35.117  (c)
G01 X39.935 Y35.778  (c)
G01 X40.597 Y36.361  (c)
G01 X41.330 Y36.855  (c)
G01 X42.126 Y37.254  (c)
G01 X42.977 Y37.550  (c)
G01 X43.874 Y37.733  (c)
G01 X44.809 Y37.796  (c)
G01 X50.027 Y37.796  
G01 X50.027 Y44.684  
G01 X44.809 Y44.684  
G01 X42.939 Y44.558  (c)
G01 X41.145 Y44.192  (c)
G01 X39.443 Y43.601  (c)
G01 X37.852 Y42.803  (c)
G01 X36.386 Y41.813  (c)
G01 X35.062 Y40.649  (c)
G01 X33.897 Y39.326  (c)
G01 X32.907 Y37.861  (c)
G01 X32.108 Y36.270  (c)
G01 X31.517 Y34.570  (c)
G01 X31.150 Y32.777  (c)
G01 X31.025 Y30.908  (c)
G00 Z2.000 
(</Figure>)
(<Figure Id="3" Id="path_b" Color="#0000ff" ToolNr="10"> )
G00 X65.486 Y44.684  
G01 Z-1.000 F500 
G01 X60.268 Y44.684 F800 
G01 X60.268 Y37.796  
G01 X65.486 Y37.796  
G01 X66.176 Y37.761  (c)
G01 X66.851 Y37.659  (c)
G01 X67.507 Y37.493  (c)
G01 X68.139 Y37.265  (c)
G01 X68.743 Y36.978  (c)
G01 X69.315 Y36.635  (c)
G01 X69.852 Y36.238  (c)
G01 X70.348 Y35.790  (c)
G01 X70.801 Y35.294  (c)
G01 X71.205 Y34.752  (c)
G01 X71.557 Y34.168  (c)
G01 X71.854 Y33.544  (c)
G01 X72.086 Y32.893  (c)
G01 X72.250 Y32.231  (c)
G01 X72.347 Y31.562  (c)
G01 X72.378 Y30.892  (c)
G01 X72.344 Y30.224  (c)
G01 X72.246 Y29.564  (c)
G01 X72.084 Y28.917  (c)
G01 X71.860 Y28.287  (c)
G01 X71.574 Y27.679  (c)
G01 X71.228 Y27.099  (c)
G01 X70.823 Y26.550  (c)
G01 X70.359 Y26.038  (c)
G01 X69.847 Y25.574  (c)
G01 X69.297 Y25.169  (c)
G01 X68.716 Y24.823  (c)
G01 X68.108 Y24.538  (c)
G01 X67.478 Y24.314  (c)
G01 X66.830 Y24.152  (c)
G01 X66.170 Y24.054  (c)
G01 X65.502 Y24.020  (c)
G01 X64.831 Y24.051  (c)
G01 X64.162 Y24.148  (c)
G01 X63.499 Y24.312  (c)
G01 X62.848 Y24.544  (c)
G01 X62.224 Y24.840  (c)
G01 X61.639 Y25.192  (c)
G01 X61.097 Y25.596  (c)
G01 X60.601 Y26.049  (c)
G01 X60.152 Y26.545  (c)
G01 X59.755 Y27.081  (c)
G01 X59.412 Y27.653  (c)
G01 X59.124 Y28.257  (c)
G01 X58.896 Y28.888  (c)
G01 X58.730 Y29.543  (c)
G01 X58.628 Y30.218  (c)
G01 X58.594 Y30.908  (c)
G01 X58.594 Y58.267  
G01 X55.147 Y61.711  
G01 X51.701 Y58.267  
G01 X51.701 Y30.908  
G01 X51.770 Y29.528  (c)
G01 X51.974 Y28.178  (c)
G01 X52.307 Y26.868  (c)
G01 X52.763 Y25.606  (c)
G01 X53.337 Y24.398  (c)
G01 X54.024 Y23.254  (c)
G01 X54.819 Y22.182  (c)
G01 X55.715 Y21.190  (c)
G01 X56.708 Y20.285  (c)
G01 X57.792 Y19.477  (c)
G01 X58.961 Y18.773  (c)
G01 X60.211 Y18.181  (c)
G01 X61.513 Y17.716  (c)
G01 X62.838 Y17.388  (c)
G01 X64.176 Y17.194  (c)
G01 X65.518 Y17.132  (c)
G01 X66.854 Y17.200  (c)
G01 X68.175 Y17.397  (c)
G01 X69.470 Y17.720  (c)
G01 X70.730 Y18.168  (c)
G01 X71.947 Y18.739  (c)
G01 X73.109 Y19.430  (c)
G01 X74.207 Y20.240  (c)
G01 X75.233 Y21.167  (c)
G01 X76.160 Y22.192  (c)
G01 X76.971 Y23.290  (c)
G01 X77.663 Y24.451  (c)
G01 X78.234 Y25.666  (c)
G01 X78.682 Y26.926  (c)
G01 X79.005 Y28.221  (c)
G01 X79.202 Y29.540  (c)
G01 X79.271 Y30.875  (c)
G01 X79.209 Y32.216  (c)
G01 X79.014 Y33.554  (c)
G01 X78.686 Y34.878  (c)
G01 X78.221 Y36.180  (c)
G01 X77.629 Y37.428  (c)
G01 X76.924 Y38.597  (c)
G01 X76.115 Y39.680  (c)
G01 X75.210 Y40.672  (c)
G01 X74.217 Y41.568  (c)
G01 X73.144 Y42.362  (c)
G01 X72.000 Y43.049  (c)
G01 X70.791 Y43.623  (c)
G01 X69.528 Y44.079  (c)
G01 X68.217 Y44.411  (c)
G01 X66.867 Y44.615  (c)
G01 X65.486 Y44.684  (c)
G00 Z2.000 
(</Figure>)
(<Figure Id="4" Id="path_l" Color="#ffff00" ToolNr="1"> )
G00 X89.512 Y30.908  
G01 Z-1.000 F500 
G01 X89.512 Y58.267 F800 
G01 X89.481 Y58.734  (c)
G01 X89.389 Y59.182  (c)
G01 X89.242 Y59.607  (c)
G01 X89.042 Y60.005  (c)
G01 X88.794 Y60.371  (c)
G01 X88.503 Y60.702  (c)
G01 X88.172 Y60.993  (c)
G01 X87.806 Y61.240  (c)
G01 X87.408 Y61.440  (c)
G01 X86.982 Y61.588  (c)
G01 X86.534 Y61.679  (c)
G01 X86.066 Y61.711  (c)
G01 X85.599 Y61.679  (c)
G01 X85.150 Y61.588  (c)
G01 X84.725 Y61.440  (c)
G01 X84.327 Y61.240  (c)
G01 X83.960 Y60.993  (c)
G01 X83.629 Y60.702  (c)
G01 X83.338 Y60.371  (c)
G01 X83.091 Y60.005  (c)
G01 X82.891 Y59.607  (c)
G01 X82.743 Y59.182  (c)
G01 X82.652 Y58.734  (c)
G01 X82.620 Y58.267  (c)
G01 X82.620 Y30.908  
G01 X82.746 Y29.038  (c)
G01 X83.113 Y27.246  (c)
G01 X83.703 Y25.546  (c)
G01 X84.502 Y23.955  (c)
G01 X85.492 Y22.490  (c)
G01 X86.658 Y21.167  (c)
G01 X87.981 Y20.002  (c)
G01 X89.447 Y19.013  (c)
G01 X91.039 Y18.214  (c)
G01 X92.740 Y17.624  (c)
G01 X94.534 Y17.258  (c)
G01 X96.405 Y17.132  (c)
G01 X99.851 Y20.576  
G01 X96.405 Y24.020  
G01 X95.469 Y24.083  (c)
G01 X94.572 Y24.266  (c)
G01 X93.722 Y24.561  (c)
G01 X92.926 Y24.960  (c)
G01 X92.193 Y25.455  (c)
G01 X91.531 Y26.037  (c)
G01 X90.949 Y26.699  (c)
G01 X90.453 Y27.431  (c)
G01 X90.054 Y28.227  (c)
G01 X89.759 Y29.077  (c)
G01 X89.575 Y29.973  (c)
G01 X89.512 Y30.908  (c)
G00 Z2.000 
(</Figure>)
(</Group>)
M05
G0X0Y0 (Setup - GCode-Footer)
M30
