( SVG import by GRBL-Plotter )
( Source: _misc\test_svg\grbl.svg )
( G-Code lines: 263 )
( Pen Down/Up : 4 times )
( Path length : 0.0 units )
( Duration ca.: 0.4 min. )
( Conv. time  : 00:00:00.1482610 )
G90 G1 F1000 (Setup - GCode-Header)
G00
M3 S1000 (Start spindle - Option Z-Axis)
G00 X13.890 Y24.020
G01
G01 X12.860 Y24.097 F2000
G01 X11.869 Y24.322
G01 X10.932 Y24.687
G01 X10.061 Y25.181
G01 X9.271 Y25.795
G01 X8.576 Y26.522
G01 X7.988 Y27.350
G01 X7.523 Y28.272
G01 X7.200 Y29.253
G01 X7.029 Y30.253
G01 X7.007 Y31.258
G01 X7.131 Y32.251
G01 X7.397 Y33.216
G01 X7.802 Y34.136
G01 X8.343 Y34.995
G01 X9.017 Y35.778
G01 X9.800 Y36.452
G01 X10.660 Y36.992
G01 X11.581 Y37.397
G01 X12.546 Y37.663
G01 X13.539 Y37.787
G01 X14.545 Y37.765
G01 X15.547 Y37.594
G01 X16.528 Y37.271
G01 X17.450 Y36.806
G01 X18.279 Y36.219
G01 X19.006 Y35.524
G01 X19.621 Y34.735
G01 X20.115 Y33.864
G01 X20.480 Y32.927
G01 X20.705 Y31.937
G01 X20.783 Y30.908
G01 X20.783 Y13.881
G01 X20.643 Y12.493
G01 X20.241 Y11.200
G01 X19.605 Y10.030
G01 X18.764 Y9.010
G01 X17.744 Y8.169
G01 X16.573 Y7.534
G01 X15.279 Y7.133
G01 X13.890 Y6.993
G01 X13.196 Y6.922
G01 X12.550 Y6.722
G01 X11.964 Y6.404
G01 X11.455 Y5.983
G01 X11.034 Y5.474
G01 X10.717 Y4.889
G01 X10.516 Y4.243
G01 X10.446 Y3.549
G01 X10.516 Y2.855
G01 X10.717 Y2.209
G01 X11.034 Y1.624
G01 X11.455 Y1.114
G01 X11.964 Y0.694
G01 X12.550 Y0.376
G01 X13.196 Y0.175
G01 X13.890 Y0.105
G01 X16.668 Y0.385
G01 X19.256 Y1.187
G01 X21.597 Y2.458
G01 X23.637 Y4.140
G01 X25.321 Y6.179
G01 X26.592 Y8.519
G01 X27.395 Y11.104
G01 X27.675 Y13.881
G01 X27.675 Y30.908
G01 X27.520 Y32.967
G01 X27.070 Y34.947
G01 X26.341 Y36.821
G01 X25.352 Y38.561
G01 X24.121 Y40.140
G01 X22.668 Y41.530
G01 X21.010 Y42.704
G01 X19.165 Y43.635
G01 X17.203 Y44.280
G01 X15.200 Y44.622
G01 X13.188 Y44.666
G01 X11.201 Y44.419
G01 X9.271 Y43.887
G01 X7.430 Y43.077
G01 X5.710 Y41.995
G01 X4.144 Y40.648
G01 X2.796 Y39.083
G01 X1.713 Y37.364
G01 X0.903 Y35.524
G01 X0.371 Y33.595
G01 X0.124 Y31.609
G01 X0.168 Y29.599
G01 X0.509 Y27.597
G01 X1.155 Y25.636
G01 X2.086 Y23.793
G01 X3.261 Y22.135
G01 X4.652 Y20.683
G01 X6.232 Y19.454
G01 X7.973 Y18.465
G01 X9.848 Y17.737
G01 X11.830 Y17.286
G01 X13.890 Y17.132
G01 X17.336 Y17.132
G01 X20.783 Y20.576
G01 X17.336 Y24.020
G01 X13.890 Y24.020
G00
G00 X31.024 Y30.908
G01 F1000
G01 X31.024 Y20.576 F2000
G01 X31.095 Y19.882
G01 X31.295 Y19.235
G01 X31.613 Y18.650
G01 X32.034 Y18.141
G01 X32.544 Y17.720
G01 X33.129 Y17.403
G01 X33.776 Y17.202
G01 X34.471 Y17.132
G01 X35.165 Y17.202
G01 X35.812 Y17.403
G01 X36.397 Y17.720
G01 X36.907 Y18.141
G01 X37.328 Y18.650
G01 X37.646 Y19.235
G01 X37.847 Y19.882
G01 X37.917 Y20.576
G01 X37.917 Y30.908
G01 X38.057 Y32.296
G01 X38.458 Y33.589
G01 X39.094 Y34.759
G01 X39.935 Y35.778
G01 X40.956 Y36.619
G01 X42.126 Y37.254
G01 X43.420 Y37.656
G01 X44.809 Y37.796
G01 X50.027 Y37.796
G01 X50.027 Y44.684
G01 X44.809 Y44.684
G01 X42.031 Y44.404
G01 X39.443 Y43.601
G01 X37.102 Y42.331
G01 X35.062 Y40.649
G01 X33.379 Y38.610
G01 X32.108 Y36.270
G01 X31.305 Y33.684
G01 X31.025 Y30.908
G00
G00 X65.486 Y44.684
G01 F1000
G01 X60.268 Y44.684 F2000
G01 X60.268 Y37.796
G01 X65.486 Y37.796
G01 X66.516 Y37.719
G01 X67.507 Y37.493
G01 X68.444 Y37.129
G01 X69.315 Y36.635
G01 X70.105 Y36.020
G01 X70.801 Y35.294
G01 X71.388 Y34.465
G01 X71.854 Y33.544
G01 X72.176 Y32.563
G01 X72.347 Y31.562
G01 X72.369 Y30.557
G01 X72.246 Y29.564
G01 X71.980 Y28.600
G01 X71.574 Y27.679
G01 X71.033 Y26.820
G01 X70.359 Y26.038
G01 X69.576 Y25.364
G01 X68.716 Y24.823
G01 X67.796 Y24.418
G01 X66.830 Y24.152
G01 X65.837 Y24.029
G01 X64.831 Y24.051
G01 X63.830 Y24.221
G01 X62.848 Y24.544
G01 X61.926 Y25.009
G01 X61.097 Y25.596
G01 X60.370 Y26.292
G01 X59.755 Y27.081
G01 X59.261 Y27.951
G01 X58.896 Y28.888
G01 X58.671 Y29.878
G01 X58.594 Y30.908
G01 X58.594 Y58.267
G01 X55.147 Y61.711
G01 X51.701 Y58.267
G01 X51.701 Y30.908
G01 X51.856 Y28.849
G01 X52.307 Y26.868
G01 X53.036 Y24.994
G01 X54.024 Y23.254
G01 X55.255 Y21.675
G01 X56.708 Y20.285
G01 X58.366 Y19.111
G01 X60.211 Y18.181
G01 X62.173 Y17.535
G01 X64.176 Y17.194
G01 X66.188 Y17.150
G01 X68.175 Y17.397
G01 X70.105 Y17.929
G01 X71.947 Y18.739
G01 X73.666 Y19.820
G01 X75.233 Y21.167
G01 X76.580 Y22.732
G01 X77.663 Y24.451
G01 X78.473 Y26.291
G01 X79.005 Y28.221
G01 X79.253 Y30.206
G01 X79.209 Y32.216
G01 X78.867 Y34.218
G01 X78.221 Y36.180
G01 X77.290 Y38.023
G01 X76.115 Y39.680
G01 X74.724 Y41.133
G01 X73.144 Y42.362
G01 X71.403 Y43.350
G01 X69.528 Y44.079
G01 X67.546 Y44.529
G01 X65.486 Y44.684
G00
G00 X89.512 Y30.908
G01 F1000
G01 X89.512 Y58.267 F2000
G01 X89.442 Y58.961
G01 X89.242 Y59.607
G01 X88.924 Y60.192
G01 X88.503 Y60.702
G01 X87.993 Y61.122
G01 X87.408 Y61.440
G01 X86.761 Y61.641
G01 X86.066 Y61.711
G01 X85.372 Y61.641
G01 X84.725 Y61.440
G01 X84.140 Y61.122
G01 X83.629 Y60.702
G01 X83.209 Y60.192
G01 X82.891 Y59.607
G01 X82.690 Y58.961
G01 X82.620 Y58.267
G01 X82.620 Y30.908
G01 X82.900 Y28.131
G01 X83.703 Y25.546
G01 X84.974 Y23.206
G01 X86.658 Y21.167
G01 X88.698 Y19.485
G01 X91.039 Y18.214
G01 X93.627 Y17.412
G01 X96.405 Y17.132
G01 X99.851 Y20.576
G01 X96.405 Y24.020
G01 X95.016 Y24.160
G01 X93.722 Y24.561
G01 X92.551 Y25.196
G01 X91.531 Y26.037
G01 X90.690 Y27.057
G01 X90.054 Y28.227
G01 X89.652 Y29.520
G01 X89.512 Y30.908
G01 X89.512 Y30.908
G00
M05 (Stop spindle - Option Z-Axis)
G0X0Y0 (Setup - GCode-Footer)
M30 (Program end)
