( SVG import by GRBL-Plotter )
( Source: data\examples\graphic_grbl_popup.svg )
( Title : Grbl logo pop-up )
( Description : Pop-up example for use with GRBL-Plotter )
( Description : Plot on paper size A6 )
( G-Code lines: 2345 )
( Pen Down/Up : 232 times )
( Path length : 0,0 units )
( Duration ca.: 3,0 min. )
( Conv. time  : 00:00:00.3027218 )
( Values from tool table: spindle speed, XY feed, Z Values )
F1000 (Setup - GCode-Header)
G00 Z2.000
M3 S0

(<Group 1 ToolNr='4' ToolName='Pen'>)
G55 
G00 Z2.000 (after tool table gcode)
(<Figure 1 Color="#00ff00" ToolNr="4"> )
G00 X96.961 Y55.739  
G01 Z-2.000 F500 
S0 
G01 X96.859 Y55.750 F1500 
G01 X96.737 Y55.758  
G01 X96.621 Y55.765  
G01 X96.500 Y55.776  
G01 X96.399 Y55.780  
G01 X96.230 Y55.774  
G01 X96.089 Y55.759  
G01 X95.951 Y55.732  
G01 X95.815 Y55.696  
G01 X95.681 Y55.648  
G01 X95.549 Y55.590  
G01 X95.423 Y55.534  
G01 X95.307 Y55.478  
G01 X95.201 Y55.422  
G01 X95.104 Y55.366  
G01 X95.018 Y55.310  
G01 X94.906 Y55.230  
G01 X94.819 Y55.170  
G01 X94.728 Y55.104  
G01 X94.725 Y52.248  
G01 X94.808 Y52.308  
G01 X94.909 Y52.375  
G01 X95.011 Y52.444  
G01 X95.135 Y52.518  
G01 X95.229 Y52.567  
G01 X95.334 Y52.616  
G01 X95.448 Y52.665  
G01 X95.575 Y52.716  
G01 X95.706 Y52.763  
G01 X95.836 Y52.800  
G01 X95.967 Y52.828  
G01 X96.098 Y52.847  
G01 X96.229 Y52.857  
G01 X96.352 Y52.857  
G01 X96.467 Y52.852  
G01 X96.578 Y52.843  
G01 X96.686 Y52.829  
G01 X96.790 Y52.810  
G01 X96.892 Y52.787  
G01 X96.961 Y55.739  
S0 
G00 Z2.000 
(</Figure 1>)
(<Figure 2 Color="#00ff00" ToolNr="4"> )
G00 X93.803 Y44.259  
G01 Z-2.000 F500 
S0 
G01 X93.803 Y55.549 F1500 
G01 X90.763 Y55.549  
G01 X90.763 Y44.259  
G01 X93.803 Y44.259  
S0 
G00 Z2.000 
(</Figure 2>)
(<Figure 3 Color="#00ff00" ToolNr="4"> )
G00 X89.437 Y48.968  
G01 Z-2.000 F500 
S0 
G01 X89.437 Y49.452 F1500 
G01 X89.435 Y49.671  
G01 X89.429 Y49.889  
G01 X89.418 Y50.103  
G01 X89.403 Y50.316  
G01 X89.383 Y50.526  
G01 X89.359 Y50.734  
G01 X89.331 Y50.940  
G01 X89.298 Y51.143  
G01 X89.261 Y51.344  
G01 X89.219 Y51.542  
G01 X89.174 Y51.739  
G01 X89.124 Y51.933  
G01 X89.069 Y52.127  
G01 X89.010 Y52.316  
G01 X88.946 Y52.502  
G01 X88.877 Y52.683  
G01 X88.804 Y52.859  
G01 X88.726 Y53.031  
G01 X88.644 Y53.199  
G01 X88.557 Y53.362  
G01 X88.465 Y53.521  
G01 X88.369 Y53.676  
G01 X88.268 Y53.826  
G01 X88.163 Y53.972  
G01 X88.055 Y54.117  
G01 X87.944 Y54.256  
G01 X87.827 Y54.390  
G01 X87.705 Y54.519  
G01 X87.578 Y54.642  
G01 X87.447 Y54.760  
G01 X87.310 Y54.873  
G01 X87.169 Y54.981  
G01 X87.023 Y55.084  
G01 X86.871 Y55.181  
G01 X86.715 Y55.273  
G01 X86.554 Y55.360  
G01 X86.388 Y55.440  
G01 X86.218 Y55.514  
G01 X86.042 Y55.580  
G01 X85.861 Y55.640  
G01 X85.676 Y55.693  
G01 X85.485 Y55.738  
G01 X85.290 Y55.777  
G01 X85.090 Y55.808  
G01 X84.885 Y55.833  
G01 X84.675 Y55.850  
G01 X84.460 Y55.861  
G01 X84.240 Y55.864  
G01 X84.036 Y55.861  
G01 X83.835 Y55.851  
G01 X83.638 Y55.834  
G01 X83.445 Y55.811  
G01 X83.255 Y55.780  
G01 X83.068 Y55.743  
G01 X82.885 Y55.700  
G01 X82.706 Y55.649  
G01 X82.530 Y55.592  
G01 X82.358 Y55.528  
G01 X82.189 Y55.458  
G01 X82.024 Y55.381  
G01 X81.862 Y55.301  
G01 X81.705 Y55.217  
G01 X81.552 Y55.127  
G01 X81.403 Y55.033  
G01 X81.257 Y54.933  
G01 X81.116 Y54.829  
G01 X80.980 Y54.719  
G01 X80.847 Y54.605  
G01 X80.718 Y54.486  
G01 X80.593 Y54.362  
G01 X80.473 Y54.232  
G01 X80.357 Y54.098  
G01 X80.244 Y53.959  
G01 X80.136 Y53.817  
G01 X80.033 Y53.670  
G01 X79.934 Y53.519  
G01 X79.839 Y53.364  
G01 X79.749 Y53.205  
G01 X79.662 Y53.041  
G01 X79.581 Y52.874  
G01 X79.503 Y52.703  
G01 X79.430 Y52.527  
G01 X79.362 Y52.348  
G01 X79.297 Y52.164  
G01 X79.238 Y51.980  
G01 X79.184 Y51.794  
G01 X79.134 Y51.605  
G01 X79.090 Y51.414  
G01 X79.052 Y51.220  
G01 X79.018 Y51.023  
G01 X78.989 Y50.824  
G01 X78.966 Y50.622  
G01 X78.948 Y50.418  
G01 X78.935 Y50.210  
G01 X78.927 Y50.001  
G01 X78.925 Y49.788  
G01 X78.927 Y49.572  
G01 X78.935 Y49.359  
G01 X78.947 Y49.149  
G01 X78.964 Y48.942  
G01 X78.986 Y48.738  
G01 X79.013 Y48.537  
G01 X79.045 Y48.339  
G01 X79.082 Y48.143  
G01 X79.123 Y47.951  
G01 X79.170 Y47.761  
G01 X79.221 Y47.575  
G01 X79.278 Y47.391  
G01 X79.342 Y47.215  
G01 X79.411 Y47.042  
G01 X79.484 Y46.873  
G01 X79.561 Y46.709  
G01 X79.643 Y46.549  
G01 X79.729 Y46.393  
G01 X79.819 Y46.240  
G01 X79.914 Y46.092  
G01 X80.013 Y45.948  
G01 X80.117 Y45.809  
G01 X80.225 Y45.673  
G01 X80.337 Y45.541  
G01 X80.453 Y45.417  
G01 X80.574 Y45.298  
G01 X80.698 Y45.184  
G01 X80.827 Y45.074  
G01 X80.960 Y44.969  
G01 X81.097 Y44.868  
G01 X81.238 Y44.772  
G01 X81.383 Y44.681  
G01 X81.532 Y44.595  
G01 X81.685 Y44.513  
G01 X81.843 Y44.436  
G01 X82.004 Y44.364  
G01 X82.172 Y44.296  
G01 X82.344 Y44.235  
G01 X82.519 Y44.180  
G01 X82.697 Y44.130  
G01 X82.878 Y44.086  
G01 X83.063 Y44.048  
G01 X83.251 Y44.016  
G01 X83.442 Y43.990  
G01 X83.637 Y43.969  
G01 X83.835 Y43.955  
G01 X84.036 Y43.946  
G01 X84.240 Y43.943  
G01 X84.405 Y43.945  
G01 X84.566 Y43.949  
G01 X84.724 Y43.956  
G01 X84.878 Y43.967  
G01 X85.029 Y43.980  
G01 X85.176 Y43.996  
G01 X85.320 Y44.015  
G01 X85.460 Y44.037  
G01 X85.597 Y44.061  
G01 X85.730 Y44.089  
G01 X85.859 Y44.120  
G01 X85.985 Y44.153  
G01 X86.112 Y44.190  
G01 X86.236 Y44.229  
G01 X86.357 Y44.272  
G01 X86.476 Y44.317  
G01 X86.592 Y44.365  
G01 X86.706 Y44.416  
G01 X86.818 Y44.470  
G01 X86.927 Y44.527  
G01 X87.034 Y44.587  
G01 X87.138 Y44.650  
G01 X87.239 Y44.715  
G01 X87.339 Y44.784  
G01 X87.439 Y44.859  
G01 X87.538 Y44.938  
G01 X87.634 Y45.019  
G01 X87.729 Y45.104  
G01 X87.822 Y45.192  
G01 X87.912 Y45.283  
G01 X88.001 Y45.378  
G01 X88.088 Y45.476  
G01 X88.174 Y45.576  
G01 X88.257 Y45.681  
G01 X88.338 Y45.788  
G01 X88.418 Y45.898  
G01 X88.499 Y46.016  
G01 X88.579 Y46.137  
G01 X88.658 Y46.261  
G01 X88.736 Y46.389  
G01 X88.812 Y46.520  
G01 X88.888 Y46.655  
G01 X88.963 Y46.794  
G01 X89.036 Y46.936  
G01 X89.109 Y47.081  
G01 X89.180 Y47.230  
G01 X89.251 Y47.382  
G01 X89.320 Y47.538  
G01 X86.299 Y47.770  
G01 X86.243 Y47.673  
G01 X86.184 Y47.581  
G01 X86.124 Y47.492  
G01 X86.062 Y47.408  
G01 X85.998 Y47.327  
G01 X85.932 Y47.249  
G01 X85.864 Y47.176  
G01 X85.722 Y47.040  
G01 X85.573 Y46.920  
G01 X85.419 Y46.815  
G01 X85.257 Y46.728  
G01 X85.085 Y46.658  
G01 X84.902 Y46.605  
G01 X84.708 Y46.570  
G01 X84.607 Y46.559  
G01 X84.503 Y46.552  
G01 X84.397 Y46.550  
G01 X84.284 Y46.552  
G01 X84.174 Y46.558  
G01 X84.067 Y46.569  
G01 X83.963 Y46.583  
G01 X83.862 Y46.601  
G01 X83.764 Y46.624  
G01 X83.577 Y46.681  
G01 X83.403 Y46.755  
G01 X83.240 Y46.845  
G01 X83.088 Y46.947  
G01 X82.945 Y47.060  
G01 X82.813 Y47.181  
G01 X82.690 Y47.312  
G01 X82.578 Y47.452  
G01 X82.475 Y47.602  
G01 X82.381 Y47.766  
G01 X82.296 Y47.938  
G01 X82.220 Y48.117  
G01 X82.152 Y48.302  
G01 X82.122 Y48.398  
G01 X82.093 Y48.495  
G01 X82.067 Y48.594  
G01 X82.043 Y48.695  
G01 X82.024 Y48.800  
G01 X82.007 Y48.905  
G01 X81.992 Y49.010  
G01 X81.978 Y49.115  
G01 X81.966 Y49.220  
G01 X81.955 Y49.326  
G01 X81.946 Y49.431  
G01 X81.939 Y49.536  
G01 X81.933 Y49.641  
G01 X81.929 Y49.746  
G01 X81.926 Y49.851  
G01 X81.926 Y49.956  
G01 X81.926 Y50.058  
G01 X81.928 Y50.159  
G01 X81.932 Y50.261  
G01 X81.936 Y50.363  
G01 X81.943 Y50.464  
G01 X81.950 Y50.566  
G01 X81.959 Y50.668  
G01 X81.969 Y50.769  
G01 X81.981 Y50.871  
G01 X81.994 Y50.972  
G01 X82.008 Y51.074  
G01 X82.024 Y51.176  
G01 X82.044 Y51.276  
G01 X82.067 Y51.375  
G01 X82.091 Y51.473  
G01 X82.146 Y51.662  
G01 X82.208 Y51.844  
G01 X82.277 Y52.019  
G01 X82.355 Y52.188  
G01 X82.443 Y52.348  
G01 X82.545 Y52.499  
G01 X82.656 Y52.639  
G01 X82.777 Y52.769  
G01 X82.907 Y52.888  
G01 X83.048 Y52.997  
G01 X83.199 Y53.097  
G01 X83.361 Y53.185  
G01 X83.535 Y53.255  
G01 X83.722 Y53.308  
G01 X83.920 Y53.343  
G01 X84.024 Y53.354  
G01 X84.130 Y53.360  
G01 X84.240 Y53.362  
G01 X84.391 Y53.359  
G01 X84.535 Y53.347  
G01 X84.674 Y53.328  
G01 X84.807 Y53.302  
G01 X84.933 Y53.267  
G01 X85.054 Y53.226  
G01 X85.169 Y53.176  
G01 X85.277 Y53.119  
G01 X85.380 Y53.055  
G01 X85.477 Y52.983  
G01 X85.567 Y52.903  
G01 X85.652 Y52.816  
G01 X85.732 Y52.725  
G01 X85.807 Y52.630  
G01 X85.878 Y52.529  
G01 X85.944 Y52.423  
G01 X86.006 Y52.312  
G01 X86.064 Y52.195  
G01 X86.117 Y52.074  
G01 X86.166 Y51.947  
G01 X86.211 Y51.814  
G01 X86.251 Y51.677  
G01 X86.287 Y51.534  
G01 X86.319 Y51.386  
G01 X83.593 Y51.386  
G01 X83.573 Y51.287  
G01 X83.554 Y51.187  
G01 X83.534 Y51.086  
G01 X83.514 Y50.984  
G01 X83.495 Y50.881  
G01 X83.475 Y50.776  
G01 X83.458 Y50.629  
G01 X83.445 Y50.482  
G01 X83.438 Y50.335  
G01 X83.436 Y50.188  
G01 X83.436 Y50.082  
G01 X83.438 Y49.977  
G01 X83.440 Y49.872  
G01 X83.444 Y49.767  
G01 X83.449 Y49.662  
G01 X83.455 Y49.557  
G01 X83.474 Y49.410  
G01 X83.494 Y49.262  
G01 X83.514 Y49.115  
G01 X83.533 Y48.968  
G01 X89.437 Y48.968  
S0 
G00 Z2.000 
(</Figure 3>)
(<Figure 4 Color="#00ff00" ToolNr="4"> )
G00 X77.980 Y53.110  
G01 Z-2.000 F500 
S0 
G01 X77.980 Y55.570 F1500 
G01 X75.959 Y55.570  
G01 X75.959 Y57.967  
G01 X72.959 Y56.285  
G01 X72.959 Y55.570  
G01 X71.507 Y55.570  
G01 X71.507 Y53.110  
G01 X72.959 Y53.110  
G01 X72.959 Y47.307  
G01 X72.963 Y47.040  
G01 X72.977 Y46.785  
G01 X73.000 Y46.542  
G01 X73.033 Y46.312  
G01 X73.074 Y46.094  
G01 X73.125 Y45.888  
G01 X73.186 Y45.694  
G01 X73.255 Y45.513  
G01 X73.334 Y45.344  
G01 X73.422 Y45.187  
G01 X73.519 Y45.042  
G01 X73.626 Y44.910  
G01 X73.743 Y44.789  
G01 X73.872 Y44.679  
G01 X74.014 Y44.579  
G01 X74.168 Y44.490  
G01 X74.334 Y44.411  
G01 X74.513 Y44.343  
G01 X74.704 Y44.285  
G01 X74.907 Y44.237  
G01 X75.122 Y44.201  
G01 X75.350 Y44.174  
G01 X75.590 Y44.159  
G01 X75.842 Y44.153  
G01 X76.018 Y44.154  
G01 X76.195 Y44.158  
G01 X76.371 Y44.164  
G01 X76.548 Y44.172  
G01 X76.724 Y44.183  
G01 X76.901 Y44.195  
G01 X77.077 Y44.204  
G01 X77.252 Y44.216  
G01 X77.426 Y44.232  
G01 X77.598 Y44.251  
G01 X77.770 Y44.274  
G01 X77.940 Y44.301  
G01 X77.940 Y46.803  
G01 X77.831 Y46.783  
G01 X77.720 Y46.766  
G01 X77.606 Y46.751  
G01 X77.489 Y46.740  
G01 X77.372 Y46.731  
G01 X77.254 Y46.724  
G01 X77.136 Y46.721  
G01 X77.019 Y46.719  
G01 X76.917 Y46.722  
G01 X76.730 Y46.742  
G01 X76.567 Y46.781  
G01 X76.426 Y46.841  
G01 X76.309 Y46.920  
G01 X76.214 Y47.020  
G01 X76.144 Y47.138  
G01 X76.089 Y47.271  
G01 X76.046 Y47.418  
G01 X76.013 Y47.579  
G01 X75.991 Y47.754  
G01 X75.980 Y47.943  
G01 X75.979 Y53.110  
G01 X77.980 Y53.110  
S0 
G00 Z2.000 
(</Figure 4>)
(<Figure 5 Color="#00ff00" ToolNr="4"> )
G00 X70.171 Y53.110  
G01 Z-2.000 F500 
S0 
G01 X70.171 Y55.570 F1500 
G01 X68.151 Y55.570  
G01 X68.151 Y57.967  
G01 X65.150 Y56.285  
G01 X65.150 Y55.570  
G01 X63.698 Y55.570  
G01 X63.698 Y53.110  
G01 X65.150 Y53.110  
G01 X65.150 Y47.307  
G01 X65.154 Y47.040  
G01 X65.168 Y46.785  
G01 X65.191 Y46.542  
G01 X65.224 Y46.312  
G01 X65.266 Y46.094  
G01 X65.316 Y45.888  
G01 X65.377 Y45.694  
G01 X65.446 Y45.513  
G01 X65.525 Y45.344  
G01 X65.613 Y45.187  
G01 X65.710 Y45.042  
G01 X65.817 Y44.910  
G01 X65.934 Y44.789  
G01 X66.063 Y44.679  
G01 X66.205 Y44.579  
G01 X66.359 Y44.490  
G01 X66.525 Y44.411  
G01 X66.704 Y44.343  
G01 X66.895 Y44.285  
G01 X67.098 Y44.237  
G01 X67.313 Y44.201  
G01 X67.541 Y44.174  
G01 X67.781 Y44.159  
G01 X68.033 Y44.153  
G01 X68.209 Y44.154  
G01 X68.386 Y44.158  
G01 X68.562 Y44.164  
G01 X68.739 Y44.172  
G01 X68.915 Y44.183  
G01 X69.092 Y44.195  
G01 X69.268 Y44.204  
G01 X69.443 Y44.216  
G01 X69.617 Y44.232  
G01 X69.789 Y44.251  
G01 X69.961 Y44.274  
G01 X70.131 Y44.301  
G01 X70.131 Y46.803  
G01 X70.022 Y46.783  
G01 X69.911 Y46.766  
G01 X69.797 Y46.751  
G01 X69.680 Y46.740  
G01 X69.563 Y46.731  
G01 X69.445 Y46.724  
G01 X69.327 Y46.721  
G01 X69.210 Y46.719  
G01 X69.108 Y46.722  
G01 X68.922 Y46.742  
G01 X68.758 Y46.781  
G01 X68.618 Y46.841  
G01 X68.500 Y46.920  
G01 X68.405 Y47.020  
G01 X68.335 Y47.138  
G01 X68.280 Y47.271  
G01 X68.237 Y47.418  
G01 X68.204 Y47.580  
G01 X68.182 Y47.755  
G01 X68.171 Y47.944  
G01 X68.170 Y53.111  
G01 X70.171 Y53.110  
S0 
G00 Z2.000 
(</Figure 5>)
(<Figure 6 Color="#00ff00" ToolNr="4"> )
G00 X62.734 Y50.020  
G01 Z-2.000 F500 
S0 
G01 X62.726 Y50.444 F1500 
G01 X62.701 Y50.853  
G01 X62.660 Y51.248  
G01 X62.603 Y51.629  
G01 X62.530 Y51.996  
G01 X62.440 Y52.348  
G01 X62.333 Y52.686  
G01 X62.211 Y53.010  
G01 X62.072 Y53.319  
G01 X61.917 Y53.614  
G01 X61.745 Y53.895  
G01 X61.557 Y54.162  
G01 X61.353 Y54.415  
G01 X61.132 Y54.648  
G01 X60.894 Y54.861  
G01 X60.640 Y55.054  
G01 X60.369 Y55.228  
G01 X60.081 Y55.381  
G01 X59.777 Y55.515  
G01 X59.456 Y55.629  
G01 X59.119 Y55.723  
G01 X58.765 Y55.797  
G01 X58.394 Y55.851  
G01 X58.007 Y55.886  
G01 X58.007 Y53.321  
G01 X58.113 Y53.298  
G01 X58.214 Y53.273  
G01 X58.311 Y53.246  
G01 X58.492 Y53.183  
G01 X58.655 Y53.109  
G01 X58.801 Y53.025  
G01 X58.930 Y52.930  
G01 X59.042 Y52.829  
G01 X59.142 Y52.721  
G01 X59.232 Y52.605  
G01 X59.310 Y52.479  
G01 X59.378 Y52.343  
G01 X59.434 Y52.198  
G01 X59.484 Y52.048  
G01 X59.528 Y51.894  
G01 X59.565 Y51.732  
G01 X59.595 Y51.564  
G01 X59.617 Y51.389  
G01 X59.631 Y51.207  
G01 X59.638 Y51.021  
G01 X59.643 Y50.834  
G01 X59.648 Y50.643  
G01 X59.651 Y50.447  
G01 X59.653 Y50.246  
G01 X59.654 Y50.144  
G01 X59.654 Y50.040  
G01 X59.654 Y49.936  
G01 X59.653 Y49.753  
G01 X59.650 Y49.569  
G01 X59.644 Y49.384  
G01 X59.637 Y49.197  
G01 X59.627 Y49.010  
G01 X59.615 Y48.821  
G01 X59.598 Y48.634  
G01 X59.576 Y48.452  
G01 X59.546 Y48.275  
G01 X59.510 Y48.102  
G01 X59.468 Y47.934  
G01 X59.419 Y47.770  
G01 X59.362 Y47.613  
G01 X59.294 Y47.464  
G01 X59.218 Y47.323  
G01 X59.131 Y47.191  
G01 X59.035 Y47.066  
G01 X58.928 Y46.950  
G01 X58.810 Y46.851  
G01 X58.678 Y46.766  
G01 X58.531 Y46.693  
G01 X58.371 Y46.632  
G01 X58.196 Y46.585  
G01 X58.007 Y46.551  
G01 X58.007 Y43.944  
G01 X58.133 Y43.963  
G01 X58.257 Y43.980  
G01 X58.378 Y43.995  
G01 X58.497 Y44.006  
G01 X58.615 Y44.018  
G01 X58.732 Y44.032  
G01 X58.850 Y44.049  
G01 X58.968 Y44.069  
G01 X59.132 Y44.106  
G01 X59.293 Y44.148  
G01 X59.449 Y44.195  
G01 X59.602 Y44.247  
G01 X59.750 Y44.303  
G01 X59.894 Y44.363  
G01 X60.034 Y44.429  
G01 X60.171 Y44.499  
G01 X60.303 Y44.574  
G01 X60.430 Y44.653  
G01 X60.554 Y44.737  
G01 X60.674 Y44.826  
G01 X60.793 Y44.922  
G01 X60.908 Y45.021  
G01 X61.020 Y45.124  
G01 X61.127 Y45.230  
G01 X61.231 Y45.339  
G01 X61.331 Y45.451  
G01 X61.427 Y45.567  
G01 X61.519 Y45.686  
G01 X61.608 Y45.807  
G01 X61.693 Y45.933  
G01 X61.774 Y46.061  
G01 X61.851 Y46.192  
G01 X61.927 Y46.327  
G01 X62.000 Y46.464  
G01 X62.069 Y46.604  
G01 X62.134 Y46.746  
G01 X62.195 Y46.891  
G01 X62.253 Y47.039  
G01 X62.306 Y47.189  
G01 X62.356 Y47.342  
G01 X62.402 Y47.497  
G01 X62.445 Y47.655  
G01 X62.483 Y47.816  
G01 X62.518 Y47.980  
G01 X62.552 Y48.145  
G01 X62.583 Y48.311  
G01 X62.612 Y48.478  
G01 X62.637 Y48.645  
G01 X62.660 Y48.814  
G01 X62.679 Y48.984  
G01 X62.696 Y49.154  
G01 X62.709 Y49.325  
G01 X62.720 Y49.497  
G01 X62.727 Y49.670  
G01 X62.732 Y49.844  
G01 X62.733 Y50.019  
G01 X62.734 Y50.020  (Z)
S0 
G00 Z2.000 
(</Figure 6>)
(<Figure 7 Color="#00ff00" ToolNr="4"> )
G00 X56.536 Y43.923  
G01 Z-2.000 F500 
S0 
G01 X56.536 Y46.530 F1500 
G01 X56.427 Y46.559  
G01 X56.323 Y46.590  
G01 X56.222 Y46.623  
G01 X56.126 Y46.658  
G01 X55.948 Y46.735  
G01 X55.786 Y46.819  
G01 X55.643 Y46.912  
G01 X55.516 Y47.013  
G01 X55.410 Y47.122  
G01 X55.314 Y47.237  
G01 X55.227 Y47.360  
G01 X55.150 Y47.490  
G01 X55.083 Y47.626  
G01 X55.026 Y47.770  
G01 X54.983 Y47.920  
G01 X54.947 Y48.076  
G01 X54.918 Y48.238  
G01 X54.895 Y48.405  
G01 X54.879 Y48.579  
G01 X54.869 Y48.758  
G01 X54.869 Y48.950  
G01 X54.869 Y49.148  
G01 X54.869 Y49.250  
G01 X54.869 Y49.352  
G01 X54.869 Y49.456  
G01 X54.869 Y49.562  
G01 X54.869 Y49.669  
G01 X54.869 Y49.777  
G01 X54.869 Y49.887  
G01 X54.869 Y49.999  
G01 X54.870 Y50.187  
G01 X54.873 Y50.375  
G01 X54.879 Y50.561  
G01 X54.886 Y50.746  
G01 X54.896 Y50.930  
G01 X54.908 Y51.113  
G01 X54.925 Y51.299  
G01 X54.948 Y51.480  
G01 X54.977 Y51.654  
G01 X55.013 Y51.823  
G01 X55.055 Y51.986  
G01 X55.104 Y52.143  
G01 X55.162 Y52.293  
G01 X55.229 Y52.433  
G01 X55.306 Y52.564  
G01 X55.392 Y52.685  
G01 X55.489 Y52.797  
G01 X55.595 Y52.900  
G01 X55.719 Y52.999  
G01 X55.856 Y53.085  
G01 X56.007 Y53.158  
G01 X56.170 Y53.218  
G01 X56.347 Y53.265  
G01 X56.536 Y53.300  
G01 X56.536 Y55.886  
G01 X56.342 Y55.876  
G01 X56.152 Y55.859  
G01 X55.965 Y55.837  
G01 X55.782 Y55.809  
G01 X55.603 Y55.774  
G01 X55.428 Y55.733  
G01 X55.257 Y55.686  
G01 X55.089 Y55.633  
G01 X54.925 Y55.574  
G01 X54.766 Y55.509  
G01 X54.610 Y55.438  
G01 X54.457 Y55.360  
G01 X54.312 Y55.281  
G01 X54.171 Y55.196  
G01 X54.034 Y55.107  
G01 X53.902 Y55.012  
G01 X53.773 Y54.913  
G01 X53.648 Y54.808  
G01 X53.528 Y54.699  
G01 X53.411 Y54.585  
G01 X53.299 Y54.465  
G01 X53.191 Y54.341  
G01 X53.086 Y54.212  
G01 X52.986 Y54.078  
G01 X52.890 Y53.943  
G01 X52.798 Y53.804  
G01 X52.710 Y53.661  
G01 X52.627 Y53.515  
G01 X52.547 Y53.364  
G01 X52.471 Y53.210  
G01 X52.400 Y53.052  
G01 X52.332 Y52.891  
G01 X52.269 Y52.725  
G01 X52.210 Y52.556  
G01 X52.155 Y52.383  
G01 X52.104 Y52.206  
G01 X52.057 Y52.026  
G01 X52.014 Y51.844  
G01 X51.975 Y51.660  
G01 X51.940 Y51.473  
G01 X51.910 Y51.284  
G01 X51.883 Y51.092  
G01 X51.861 Y50.898  
G01 X51.842 Y50.702  
G01 X51.828 Y50.503  
G01 X51.818 Y50.302  
G01 X51.812 Y50.099  
G01 X51.810 Y49.894  
G01 X51.811 Y49.719  
G01 X51.814 Y49.545  
G01 X51.821 Y49.372  
G01 X51.829 Y49.200  
G01 X51.840 Y49.029  
G01 X51.854 Y48.858  
G01 X51.870 Y48.689  
G01 X51.888 Y48.520  
G01 X51.909 Y48.352  
G01 X51.932 Y48.185  
G01 X51.958 Y48.019  
G01 X51.986 Y47.854  
G01 X52.020 Y47.694  
G01 X52.058 Y47.536  
G01 X52.099 Y47.381  
G01 X52.143 Y47.228  
G01 X52.190 Y47.077  
G01 X52.241 Y46.929  
G01 X52.295 Y46.783  
G01 X52.352 Y46.639  
G01 X52.413 Y46.498  
G01 X52.476 Y46.359  
G01 X52.543 Y46.222  
G01 X52.614 Y46.088  
G01 X52.687 Y45.957  
G01 X52.765 Y45.829  
G01 X52.845 Y45.704  
G01 X52.930 Y45.583  
G01 X53.017 Y45.466  
G01 X53.109 Y45.352  
G01 X53.204 Y45.242  
G01 X53.302 Y45.135  
G01 X53.404 Y45.032  
G01 X53.510 Y44.932  
G01 X53.619 Y44.835  
G01 X53.732 Y44.742  
G01 X53.848 Y44.654  
G01 X53.969 Y44.570  
G01 X54.094 Y44.491  
G01 X54.224 Y44.418  
G01 X54.358 Y44.349  
G01 X54.496 Y44.285  
G01 X54.639 Y44.226  
G01 X54.786 Y44.172  
G01 X54.938 Y44.124  
G01 X55.094 Y44.080  
G01 X55.254 Y44.041  
G01 X55.418 Y44.007  
G01 X55.556 Y43.988  
G01 X55.693 Y43.975  
G01 X55.830 Y43.967  
G01 X55.967 Y43.964  
G01 X56.113 Y43.954  
G01 X56.257 Y43.944  
G01 X56.398 Y43.933  
G01 X56.536 Y43.922  
S0 
G00 Z2.000 
(</Figure 7>)
(<Figure 8 Color="#00ff00" ToolNr="4"> )
G00 X50.058 Y44.259  
G01 Z-2.000 F500 
S0 
G01 X50.058 Y58.977 F1500 
G01 X47.097 Y58.977  
G01 X47.097 Y44.259  
G01 X50.058 Y44.259  
S0 
G00 Z2.000 
(</Figure 8>)
(<Figure 9 Color="#00ff00" ToolNr="4"> )
G00 X45.821 Y54.162  
G01 Z-2.000 F500 
S0 
G01 X45.819 Y54.369 F1500 
G01 X45.815 Y54.572  
G01 X45.807 Y54.770  
G01 X45.797 Y54.963  
G01 X45.783 Y55.151  
G01 X45.767 Y55.334  
G01 X45.747 Y55.512  
G01 X45.725 Y55.685  
G01 X45.699 Y55.853  
G01 X45.671 Y56.016  
G01 X45.639 Y56.174  
G01 X45.605 Y56.327  
G01 X45.567 Y56.479  
G01 X45.526 Y56.626  
G01 X45.481 Y56.767  
G01 X45.433 Y56.904  
G01 X45.381 Y57.036  
G01 X45.325 Y57.163  
G01 X45.266 Y57.285  
G01 X45.204 Y57.402  
G01 X45.138 Y57.514  
G01 X45.068 Y57.621  
G01 X44.995 Y57.723  
G01 X44.918 Y57.820  
G01 X44.838 Y57.916  
G01 X44.753 Y58.007  
G01 X44.665 Y58.095  
G01 X44.572 Y58.177  
G01 X44.475 Y58.256  
G01 X44.374 Y58.330  
G01 X44.269 Y58.399  
G01 X44.160 Y58.465  
G01 X44.047 Y58.526  
G01 X43.930 Y58.582  
G01 X43.808 Y58.634  
G01 X43.683 Y58.682  
G01 X43.553 Y58.729  
G01 X43.418 Y58.772  
G01 X43.279 Y58.811  
G01 X43.136 Y58.845  
G01 X42.987 Y58.876  
G01 X42.834 Y58.903  
G01 X42.677 Y58.925  
G01 X42.515 Y58.944  
G01 X42.348 Y58.958  
G01 X42.176 Y58.968  
G01 X42.000 Y58.974  
G01 X41.820 Y58.976  
G01 X39.780 Y58.976  
G01 X39.780 Y56.285  
G01 X39.897 Y56.285  
G01 X40.001 Y56.285  
G01 X40.103 Y56.285  
G01 X40.204 Y56.285  
G01 X40.400 Y56.285  
G01 X40.590 Y56.285  
G01 X40.773 Y56.285  
G01 X40.949 Y56.285  
G01 X41.122 Y56.284  
G01 X41.290 Y56.273  
G01 X41.449 Y56.252  
G01 X41.599 Y56.221  
G01 X41.741 Y56.179  
G01 X41.874 Y56.126  
G01 X41.998 Y56.062  
G01 X42.112 Y55.983  
G01 X42.217 Y55.887  
G01 X42.312 Y55.775  
G01 X42.397 Y55.646  
G01 X42.472 Y55.502  
G01 X42.540 Y55.343  
G01 X42.600 Y55.163  
G01 X42.626 Y55.063  
G01 X42.648 Y54.957  
G01 X42.668 Y54.845  
G01 X42.684 Y54.726  
G01 X42.698 Y54.601  
G01 X42.708 Y54.469  
G01 X42.716 Y54.331  
G01 X42.720 Y54.186  
G01 X42.722 Y54.035  
G01 X42.721 Y53.925  
G01 X42.718 Y53.819  
G01 X42.714 Y53.716  
G01 X42.701 Y53.522  
G01 X42.682 Y53.344  
G01 X42.656 Y53.180  
G01 X42.623 Y53.032  
G01 X42.583 Y52.898  
G01 X42.537 Y52.775  
G01 X42.482 Y52.663  
G01 X42.420 Y52.561  
G01 X42.350 Y52.470  
G01 X42.273 Y52.390  
G01 X42.191 Y52.319  
G01 X42.105 Y52.258  
G01 X42.011 Y52.204  
G01 X41.910 Y52.158  
G01 X41.801 Y52.121  
G01 X41.684 Y52.092  
G01 X41.560 Y52.073  
G01 X41.430 Y52.062  
G01 X41.292 Y52.052  
G01 X41.149 Y52.045  
G01 X40.998 Y52.041  
G01 X40.841 Y52.038  
G01 X39.780 Y52.038  
G01 X39.780 Y49.368  
G01 X41.329 Y49.368  
G01 X41.520 Y49.369  
G01 X41.706 Y49.374  
G01 X41.888 Y49.381  
G01 X42.066 Y49.391  
G01 X42.239 Y49.404  
G01 X42.408 Y49.420  
G01 X42.572 Y49.439  
G01 X42.733 Y49.461  
G01 X42.888 Y49.486  
G01 X43.040 Y49.514  
G01 X43.187 Y49.544  
G01 X43.330 Y49.578  
G01 X43.471 Y49.619  
G01 X43.609 Y49.664  
G01 X43.742 Y49.713  
G01 X43.870 Y49.767  
G01 X43.994 Y49.825  
G01 X44.114 Y49.888  
G01 X44.230 Y49.955  
G01 X44.341 Y50.027  
G01 X44.448 Y50.102  
G01 X44.550 Y50.182  
G01 X44.648 Y50.267  
G01 X44.742 Y50.356  
G01 X44.831 Y50.453  
G01 X44.917 Y50.555  
G01 X44.998 Y50.662  
G01 X45.075 Y50.774  
G01 X45.148 Y50.891  
G01 X45.217 Y51.013  
G01 X45.282 Y51.140  
G01 X45.343 Y51.272  
G01 X45.400 Y51.408  
G01 X45.453 Y51.550  
G01 X45.501 Y51.697  
G01 X45.546 Y51.849  
G01 X45.590 Y52.006  
G01 X45.630 Y52.170  
G01 X45.666 Y52.340  
G01 X45.699 Y52.517  
G01 X45.727 Y52.700  
G01 X45.752 Y52.889  
G01 X45.773 Y53.085  
G01 X45.790 Y53.288  
G01 X45.803 Y53.497  
G01 X45.813 Y53.712  
G01 X45.819 Y53.933  
G01 X45.821 Y54.161  
S0 
G00 Z2.000 
(</Figure 9>)
(<Figure 10 Color="#00ff00" ToolNr="4"> )
G00 X38.289 Y44.259  
G01 Z-2.000 F500 
S0 
G01 X38.289 Y58.977 F1500 
G01 X35.210 Y58.977  
G01 X35.210 Y44.259  
G01 X38.289 Y44.259  
S0 
G00 Z2.000 
(</Figure 10>)
(</Group 1>)
(<Group 2 ToolNr='3' ToolName='Laser Mountain fold'>)
G54 
G00 Z0.000 (after tool table gcode)
(<Figure 47 Color="#0000ff" ToolNr="3"> )
G00 X83.287 Y114.027  
S100 
G01 X83.887 Y114.021 F800 
S0 
G01 X84.487 Y114.015  
S100 
G01 X85.087 Y114.009 F800 
S0 
G01 X85.687 Y114.003  
S100 
G01 X86.000 Y114.000 F800 
S0 
(</Figure 47>)
(<Figure 48 Color="#0000ff" ToolNr="3"> )
G00 X63.000 Y99.000  
S100 
G01 X63.600 Y99.000 F800 
S0 
G01 X64.200 Y99.000  
S100 
G01 X64.800 Y99.000 F800 
S0 
G01 X65.400 Y99.000  
S100 
G01 X66.000 Y99.000 F800 
S0 
G01 X66.000 Y99.000  
(</Figure 48>)
(<Figure 49 Color="#0000ff" ToolNr="3"> )
G00 X47.000 Y99.000  
S100 
G01 X47.600 Y99.000 F800 
S0 
G01 X48.200 Y99.000  
S100 
G01 X48.800 Y99.000 F800 
S0 
G01 X49.400 Y99.000  
S100 
G01 X50.000 Y99.000 F800 
S0 
(</Figure 49>)
(<Figure 50 Color="#0000ff" ToolNr="3"> )
G00 X18.202 Y98.980  
S100 
G01 X18.802 Y98.971 F800 
S0 
G01 X19.402 Y98.962  
S100 
G01 X20.002 Y98.954 F800 
S0 
G01 X20.602 Y98.945  
S100 
G01 X20.722 Y98.943 F800 
S0 
(</Figure 50>)
(<Figure 51 Color="#0000ff" ToolNr="3"> )
G00 X35.000 Y59.000  
S100 
G01 X35.600 Y59.000 F800 
S0 
G01 X36.200 Y59.000  
S100 
G01 X36.800 Y59.000 F800 
S0 
G01 X37.400 Y59.000  
S100 
G01 X38.000 Y59.000 F800 
S0 
G01 X38.600 Y59.000  
S100 
G01 X39.200 Y59.000 F800 
S0 
G01 X39.800 Y59.000  
S100 
G01 X40.400 Y59.000 F800 
S0 
G01 X41.000 Y59.000  
S100 
G01 X41.600 Y59.000 F800 
S0 
G01 X42.200 Y59.000  
S100 
G01 X42.800 Y59.000 F800 
S0 
G01 X43.400 Y59.000  
S100 
G01 X44.000 Y59.000 F800 
S0 
G01 X44.600 Y59.000  
S100 
G01 X45.200 Y59.000 F800 
S0 
G01 X45.800 Y59.000  
S100 
G01 X46.400 Y59.000 F800 
S0 
G01 X47.000 Y59.000  
S100 
G01 X47.600 Y59.000 F800 
S0 
G01 X48.200 Y59.000  
S100 
G01 X48.800 Y59.000 F800 
S0 
G01 X49.400 Y59.000  
S100 
G01 X50.000 Y59.000 F800 
S0 
G01 X50.600 Y59.000  
S100 
G01 X51.200 Y59.000 F800 
S0 
G01 X51.800 Y59.000  
S100 
G01 X52.400 Y59.000 F800 
S0 
G01 X53.000 Y59.000  
S100 
G01 X53.600 Y59.000 F800 
S0 
G01 X54.200 Y59.000  
S100 
G01 X54.800 Y59.000 F800 
S0 
G01 X55.400 Y59.000  
S100 
G01 X56.000 Y59.000 F800 
S0 
G01 X56.600 Y59.000  
S100 
G01 X57.200 Y59.000 F800 
S0 
G01 X57.800 Y59.000  
S100 
G01 X58.400 Y59.000 F800 
S0 
G01 X59.000 Y59.000  
S100 
G01 X59.600 Y59.000 F800 
S0 
G01 X60.200 Y59.000  
S100 
G01 X60.800 Y59.000 F800 
S0 
G01 X61.400 Y59.000  
S100 
G01 X62.000 Y59.000 F800 
S0 
G01 X62.600 Y59.000  
S100 
G01 X63.200 Y59.000 F800 
S0 
G01 X63.800 Y59.000  
S100 
G01 X64.400 Y59.000 F800 
S0 
G01 X65.000 Y59.000  
S100 
G01 X65.600 Y59.000 F800 
S0 
G01 X66.200 Y59.000  
S100 
G01 X66.800 Y59.000 F800 
S0 
G01 X67.400 Y59.000  
S100 
G01 X68.000 Y59.000 F800 
S0 
G01 X68.600 Y59.000  
S100 
G01 X69.200 Y59.000 F800 
S0 
G01 X69.800 Y59.000  
S100 
G01 X70.400 Y59.000 F800 
S0 
G01 X71.000 Y59.000  
S100 
G01 X71.600 Y59.000 F800 
S0 
G01 X72.200 Y59.000  
S100 
G01 X72.800 Y59.000 F800 
S0 
G01 X73.400 Y59.000  
S100 
G01 X74.000 Y59.000 F800 
S0 
G01 X74.600 Y59.000  
S100 
G01 X75.200 Y59.000 F800 
S0 
G01 X75.800 Y59.000  
S100 
G01 X76.400 Y59.000 F800 
S0 
G01 X77.000 Y59.000  
S100 
G01 X77.600 Y59.000 F800 
S0 
G01 X78.200 Y59.000  
S100 
G01 X78.800 Y59.000 F800 
S0 
G01 X79.400 Y59.000  
S100 
G01 X80.000 Y59.000 F800 
S0 
G01 X80.600 Y59.000  
S100 
G01 X81.200 Y59.000 F800 
S0 
G01 X81.800 Y59.000  
S100 
G01 X82.400 Y59.000 F800 
S0 
G01 X83.000 Y59.000  
S100 
G01 X83.600 Y59.000 F800 
S0 
G01 X84.200 Y59.000  
S100 
G01 X84.800 Y59.000 F800 
S0 
G01 X85.400 Y59.000  
S100 
G01 X86.000 Y59.000 F800 
S0 
G01 X86.600 Y59.000  
S100 
G01 X87.200 Y59.000 F800 
S0 
G01 X87.800 Y59.000  
S100 
G01 X88.400 Y59.000 F800 
S0 
G01 X89.000 Y59.000  
S100 
G01 X89.600 Y59.000 F800 
S0 
G01 X90.200 Y59.000  
S100 
G01 X90.800 Y59.000 F800 
S0 
G01 X91.400 Y59.000  
S100 
G01 X92.000 Y59.000 F800 
S0 
G01 X92.600 Y59.000  
S100 
G01 X93.200 Y59.000 F800 
S0 
G01 X93.800 Y59.000  
S100 
G01 X94.400 Y59.000 F800 
S0 
G01 X95.000 Y59.000  
S100 
G01 X95.600 Y59.000 F800 
S0 
G01 X96.200 Y59.000  
S100 
G01 X96.800 Y59.000 F800 
S0 
G01 X97.000 Y59.000  
(</Figure 51>)
(</Group 2>)
(<Group 3 ToolNr='2' ToolName='Laser Valley fold'>)
G54 
G00 Z0.000 (after tool table gcode)
(<Figure 11 Color="#ff0000" ToolNr="2"> )
G00 X97.000 Y74.000  
G01 Z0.000 F500 
S100 
G01 X97.600 Y74.000 F800 
S0 
G01 X98.200 Y74.000  
S100 
G01 X98.800 Y74.000 F800 
S0 
G01 X99.400 Y74.000  
S100 
G01 X100.000 Y74.000 F800 
S0 
G01 X100.600 Y74.000  
S100 
G01 X101.200 Y74.000 F800 
S0 
G01 X101.800 Y74.000  
S100 
G01 X102.400 Y74.000 F800 
S0 
G01 X103.000 Y74.000  
S100 
G01 X103.600 Y74.000 F800 
S0 
G01 X104.200 Y74.000  
S100 
G01 X104.800 Y74.000 F800 
S0 
G01 X105.000 Y74.000  
(</Figure 11>)
(<Figure 12 Color="#ff0000" ToolNr="2"> )
G00 X91.272 Y74.543  
S100 
G01 X91.872 Y74.543 F800 
S0 
G01 X92.472 Y74.543  
S100 
G01 X93.072 Y74.543 F800 
S0 
G01 X93.672 Y74.543  
S100 
G01 X93.801 Y74.543 F800 
S0 
(</Figure 12>)
(<Figure 13 Color="#ff0000" ToolNr="2"> )
G00 X88.000 Y89.000  
S100 
G01 X88.600 Y89.000 F800 
S0 
G01 X89.200 Y89.000  
S100 
G01 X89.800 Y89.000 F800 
S0 
G01 X90.400 Y89.000  
S100 
G01 X91.000 Y89.000 F800 
S0 
G01 X91.600 Y89.000  
S100 
G01 X92.200 Y89.000 F800 
S0 
G01 X92.800 Y89.000  
S100 
G01 X93.400 Y89.000 F800 
S0 
G01 X94.000 Y89.000  
S100 
G01 X94.600 Y89.000 F800 
S0 
G01 X95.200 Y89.000  
S100 
G01 X95.800 Y89.000 F800 
S0 
G01 X96.400 Y89.000  
S100 
G01 X97.000 Y89.000 F800 
S0 
G01 X97.000 Y89.000  
(</Figure 13>)
(<Figure 14 Color="#ff0000" ToolNr="2"> )
G00 X78.516 Y88.974  
S100 
G01 X79.116 Y88.980 F800 
S0 
G01 X79.716 Y88.987  
S100 
G01 X80.316 Y88.993 F800 
S0 
G01 X80.916 Y88.999  
S100 
G01 X81.000 Y89.000 F800 
S0 
(</Figure 14>)
(<Figure 15 Color="#ff0000" ToolNr="2"> )
G00 X60.000 Y89.000  
S100 
G01 X60.600 Y89.000 F800 
S0 
G01 X61.200 Y89.000  
S100 
G01 X61.800 Y89.000 F800 
S0 
G01 X62.400 Y89.000  
S100 
G01 X63.000 Y89.000 F800 
S0 
G01 X63.600 Y89.000  
S100 
G01 X64.200 Y89.000 F800 
S0 
G01 X64.800 Y89.000  
S100 
G01 X65.400 Y89.000 F800 
S0 
G01 X66.000 Y89.000  
S100 
G01 X66.600 Y89.000 F800 
S0 
G01 X67.200 Y89.000  
S100 
G01 X67.800 Y89.000 F800 
S0 
G01 X68.400 Y89.000  
S100 
G01 X69.000 Y89.000 F800 
S0 
G01 X69.600 Y89.000  
S100 
G01 X70.200 Y89.000 F800 
S0 
G01 X70.800 Y89.000  
S100 
G01 X71.000 Y89.000 F800 
S0 
(</Figure 15>)
(<Figure 16 Color="#ff0000" ToolNr="2"> )
G00 X63.953 Y74.468  
S100 
G01 X64.553 Y74.468 F800 
S0 
G01 X65.153 Y74.468  
S100 
G01 X65.753 Y74.468 F800 
S0 
G01 X66.353 Y74.468  
S100 
G01 X66.953 Y74.468 F800 
S0 
G01 X67.453 Y74.468  
(</Figure 16>)
(<Figure 17 Color="#ff0000" ToolNr="2"> )
G00 X42.000 Y89.000  
S100 
G01 X42.600 Y89.000 F800 
S0 
G01 X43.200 Y89.000  
S100 
G01 X43.800 Y89.000 F800 
S0 
G01 X44.400 Y89.000  
S100 
G01 X45.000 Y89.000 F800 
S0 
G01 X45.600 Y89.000  
S100 
G01 X46.200 Y89.000 F800 
S0 
G01 X46.800 Y89.000  
S100 
G01 X47.400 Y89.000 F800 
S0 
G01 X48.000 Y89.000  
S100 
G01 X48.600 Y89.000 F800 
S0 
G01 X49.200 Y89.000  
S100 
G01 X49.800 Y89.000 F800 
S0 
G01 X50.400 Y89.000  
S100 
G01 X51.000 Y89.000 F800 
S0 
G01 X51.600 Y89.000  
S100 
G01 X52.200 Y89.000 F800 
S0 
G01 X52.800 Y89.000  
S100 
G01 X53.000 Y89.000 F800 
S0 
(</Figure 17>)
(<Figure 18 Color="#ff0000" ToolNr="2"> )
G00 X37.004 Y74.535  
S100 
G01 X37.604 Y74.535 F800 
S0 
G01 X38.204 Y74.535  
S100 
G01 X38.804 Y74.535 F800 
S0 
G01 X39.404 Y74.535  
S100 
G01 X39.411 Y74.535 F800 
S0 
(</Figure 18>)
(<Figure 19 Color="#ff0000" ToolNr="2"> )
G00 X32.284 Y74.026  
S100 
G01 X32.884 Y74.020 F800 
S0 
G01 X33.484 Y74.015  
S100 
G01 X34.084 Y74.009 F800 
S0 
G01 X34.684 Y74.003  
S100 
G01 X35.000 Y74.000 F800 
S0 
(</Figure 19>)
(<Figure 20 Color="#ff0000" ToolNr="2"> )
G00 X18.891 Y59.048  
S100 
G01 X19.491 Y59.044 F800 
S0 
G01 X20.091 Y59.040  
S100 
G01 X20.691 Y59.036 F800 
S0 
G01 X21.291 Y59.033  
S100 
G01 X21.891 Y59.029 F800 
S0 
G01 X21.992 Y59.028  
(</Figure 20>)
(<Figure 21 Color="#ff0000" ToolNr="2"> )
G00 X35.000 Y44.000  
S100 
G01 X35.600 Y44.000 F800 
S0 
G01 X36.200 Y44.000  
S100 
G01 X36.800 Y44.000 F800 
S0 
G01 X37.400 Y44.000  
S100 
G01 X38.000 Y44.000 F800 
S0 
G01 X38.600 Y44.000  
S100 
G01 X39.200 Y44.000 F800 
S0 
G01 X39.800 Y44.000  
S100 
G01 X40.400 Y44.000 F800 
S0 
G01 X41.000 Y44.000  
S100 
G01 X41.600 Y44.000 F800 
S0 
G01 X42.200 Y44.000  
S100 
G01 X42.800 Y44.000 F800 
S0 
G01 X43.400 Y44.000  
S100 
G01 X44.000 Y44.000 F800 
S0 
G01 X44.600 Y44.000  
S100 
G01 X45.200 Y44.000 F800 
S0 
G01 X45.800 Y44.000  
S100 
G01 X46.400 Y44.000 F800 
S0 
G01 X47.000 Y44.000  
S100 
G01 X47.600 Y44.000 F800 
S0 
G01 X48.200 Y44.000  
S100 
G01 X48.800 Y44.000 F800 
S0 
G01 X49.400 Y44.000  
S100 
G01 X50.000 Y44.000 F800 
S0 
G01 X50.600 Y44.000  
S100 
G01 X51.200 Y44.000 F800 
S0 
G01 X51.800 Y44.000  
S100 
G01 X52.400 Y44.000 F800 
S0 
G01 X53.000 Y44.000  
S100 
G01 X53.600 Y44.000 F800 
S0 
G01 X54.200 Y44.000  
S100 
G01 X54.800 Y44.000 F800 
S0 
G01 X55.400 Y44.000  
S100 
G01 X56.000 Y44.000 F800 
S0 
G01 X56.600 Y44.000  
S100 
G01 X57.200 Y44.000 F800 
S0 
G01 X57.800 Y44.000  
S100 
G01 X58.400 Y44.000 F800 
S0 
G01 X59.000 Y44.000  
S100 
G01 X59.600 Y44.000 F800 
S0 
G01 X60.200 Y44.000  
S100 
G01 X60.800 Y44.000 F800 
S0 
G01 X61.400 Y44.000  
S100 
G01 X62.000 Y44.000 F800 
S0 
G01 X62.600 Y44.000  
S100 
G01 X63.200 Y44.000 F800 
S0 
G01 X63.800 Y44.000  
S100 
G01 X64.400 Y44.000 F800 
S0 
G01 X65.000 Y44.000  
S100 
G01 X65.600 Y44.000 F800 
S0 
G01 X66.200 Y44.000  
S100 
G01 X66.800 Y44.000 F800 
S0 
G01 X67.400 Y44.000  
S100 
G01 X68.000 Y44.000 F800 
S0 
G01 X68.600 Y44.000  
S100 
G01 X69.200 Y44.000 F800 
S0 
G01 X69.800 Y44.000  
S100 
G01 X70.400 Y44.000 F800 
S0 
G01 X71.000 Y44.000  
S100 
G01 X71.600 Y44.000 F800 
S0 
G01 X72.200 Y44.000  
S100 
G01 X72.800 Y44.000 F800 
S0 
G01 X73.400 Y44.000  
S100 
G01 X74.000 Y44.000 F800 
S0 
G01 X74.600 Y44.000  
S100 
G01 X75.200 Y44.000 F800 
S0 
G01 X75.800 Y44.000  
S100 
G01 X76.400 Y44.000 F800 
S0 
G01 X77.000 Y44.000  
S100 
G01 X77.600 Y44.000 F800 
S0 
G01 X78.200 Y44.000  
S100 
G01 X78.800 Y44.000 F800 
S0 
G01 X79.400 Y44.000  
S100 
G01 X80.000 Y44.000 F800 
S0 
G01 X80.600 Y44.000  
S100 
G01 X81.200 Y44.000 F800 
S0 
G01 X81.800 Y44.000  
S100 
G01 X82.400 Y44.000 F800 
S0 
G01 X83.000 Y44.000  
S100 
G01 X83.600 Y44.000 F800 
S0 
G01 X84.200 Y44.000  
S100 
G01 X84.800 Y44.000 F800 
S0 
G01 X85.400 Y44.000  
S100 
G01 X86.000 Y44.000 F800 
S0 
G01 X86.600 Y44.000  
S100 
G01 X87.200 Y44.000 F800 
S0 
G01 X87.800 Y44.000  
S100 
G01 X88.400 Y44.000 F800 
S0 
G01 X89.000 Y44.000  
S100 
G01 X89.600 Y44.000 F800 
S0 
G01 X90.200 Y44.000  
S100 
G01 X90.800 Y44.000 F800 
S0 
G01 X91.400 Y44.000  
S100 
G01 X92.000 Y44.000 F800 
S0 
G01 X92.600 Y44.000  
S100 
G01 X93.200 Y44.000 F800 
S0 
G01 X93.800 Y44.000  
S100 
G01 X94.400 Y44.000 F800 
S0 
G01 X95.000 Y44.000  
S100 
G01 X95.600 Y44.000 F800 
S0 
G01 X96.200 Y44.000  
S100 
G01 X96.800 Y44.000 F800 
S0 
G01 X97.000 Y44.000  
(</Figure 21>)
(<Figure 22 Color="#ff0000" ToolNr="2"> )
G00 X63.000 Y114.000  
S100 
G01 X63.600 Y114.000 F800 
S0 
G01 X64.200 Y114.000  
S100 
G01 X64.800 Y114.000 F800 
S0 
G01 X65.400 Y114.000  
S100 
G01 X66.000 Y114.000 F800 
S0 
G01 X66.000 Y114.000  
(</Figure 22>)
(<Figure 23 Color="#ff0000" ToolNr="2"> )
G00 X47.000 Y114.000  
S100 
G01 X47.600 Y114.000 F800 
S0 
G01 X48.200 Y114.000  
S100 
G01 X48.800 Y114.000 F800 
S0 
G01 X49.400 Y114.000  
S100 
G01 X50.000 Y114.000 F800 
S0 
(</Figure 23>)
(<Figure 24 Color="#ff0000" ToolNr="2"> )
G00 X18.000 Y114.000  
S100 
G01 X18.600 Y114.000 F800 
S0 
G01 X19.200 Y114.000  
S100 
G01 X19.800 Y114.000 F800 
S0 
G01 X20.400 Y114.000  
S100 
G01 X21.000 Y114.000 F800 
S0 
(</Figure 24>)
(<Figure 25 Color="#ff0000" ToolNr="2"> )
G00 X0.000 Y74.000  
S100 
G01 X0.600 Y74.000 F800 
S0 
G01 X1.200 Y74.000  
S100 
G01 X1.800 Y74.000 F800 
S0 
G01 X2.400 Y74.000  
S100 
G01 X3.000 Y74.000 F800 
S0 
G01 X3.600 Y74.000  
S100 
G01 X4.200 Y74.000 F800 
S0 
G01 X4.800 Y74.000  
S100 
G01 X5.400 Y74.000 F800 
S0 
G01 X6.000 Y74.000  
S100 
G01 X6.600 Y74.000 F800 
S0 
G01 X7.200 Y74.000  
S100 
G01 X7.800 Y74.000 F800 
S0 
G01 X8.400 Y74.000  
S100 
G01 X9.000 Y74.000 F800 
S0 
G01 X9.600 Y74.000  
S100 
G01 X10.200 Y74.000 F800 
S0 
G01 X10.800 Y74.000  
S100 
G01 X11.400 Y74.000 F800 
S0 
G01 X12.000 Y74.000  
S100 
G01 X12.600 Y74.000 F800 
S0 
G01 X13.200 Y74.000  
S100 
G01 X13.800 Y74.000 F800 
S0 
G01 X14.400 Y74.000  
S100 
G01 X15.000 Y74.000 F800 
S0 
G01 X15.600 Y74.000  
S100 
G01 X16.200 Y74.000 F800 
S0 
G01 X16.800 Y74.000  
S100 
G01 X17.400 Y74.000 F800 
S0 
G01 X18.000 Y74.000  
S100 
G01 X18.600 Y74.000 F800 
S0 
G01 X19.200 Y74.000  
S100 
G01 X19.800 Y74.000 F800 
S0 
G01 X20.400 Y74.000  
S100 
G01 X21.000 Y74.000 F800 
S0 
G01 X21.600 Y74.000  
S100 
G01 X22.200 Y74.000 F800 
S0 
G01 X22.800 Y74.000  
S100 
G01 X23.400 Y74.000 F800 
S0 
G01 X24.000 Y74.000  
S100 
G01 X24.600 Y74.000 F800 
S0 
G01 X25.000 Y74.000  
(</Figure 25>)
(<Figure 26 Color="#ff0000" ToolNr="2"> )
G00 X83.175 Y129.000  
S100 
G01 X83.775 Y129.000 F800 
S0 
G01 X84.375 Y129.000  
S100 
G01 X84.975 Y129.000 F800 
S0 
G01 X85.575 Y129.000  
S100 
G01 X86.175 Y129.000 F800 
S0 
G01 X86.175 Y129.000  
(</Figure 26>)
(</Group 3>)
(<Group 4 ToolNr='1' ToolName='Laser Cut'>)
G54 
G00 Z0.000 (after tool table gcode)
(<Figure 27 Color="#000000" ToolNr="1"> )
G00 X86.175 Y129.000  
S100 
G01 X86.175 Y114.000 F800 
S0 
(</Figure 27>)
(<Figure 28 Color="#000000" ToolNr="1"> )
G00 X83.287 Y114.030  
S100 
G01 X83.195 Y113.989 F800 
G01 X83.105 Y113.946  
G01 X82.930 Y113.851  
G01 X82.762 Y113.745  
G01 X82.601 Y113.629  
G01 X82.449 Y113.503  
G01 X82.304 Y113.368  
G01 X82.169 Y113.224  
G01 X82.043 Y113.071  
G01 X81.927 Y112.911  
G01 X81.821 Y112.743  
G01 X81.726 Y112.568  
G01 X81.642 Y112.386  
G01 X81.569 Y112.199  
G01 X81.509 Y112.005  
G01 X81.462 Y111.807  
G01 X81.427 Y111.603  
G01 X81.406 Y111.396  
G01 X81.399 Y111.184  
G01 X81.399 Y86.649  
G01 X81.427 Y85.803  
G01 X81.512 Y84.973  
G01 X81.650 Y84.159  
G01 X81.840 Y83.365  
G01 X82.081 Y82.591  
G01 X82.370 Y81.841  
G01 X82.706 Y81.114  
G01 X83.087 Y80.414  
G01 X83.510 Y79.742  
G01 X83.975 Y79.100  
G01 X84.479 Y78.490  
G01 X85.020 Y77.914  
G01 X85.305 Y77.639  
G01 X85.597 Y77.373  
G01 X85.898 Y77.117  
G01 X86.208 Y76.870  
G01 X86.525 Y76.632  
G01 X86.850 Y76.405  
G01 X87.183 Y76.188  
G01 X87.523 Y75.982  
G01 X87.870 Y75.786  
G01 X88.224 Y75.602  
G01 X88.584 Y75.428  
G01 X88.951 Y75.266  
G01 X89.137 Y75.189  
G01 X89.324 Y75.115  
G01 X89.513 Y75.045  
G01 X89.703 Y74.977  
G01 X89.894 Y74.912  
G01 X90.087 Y74.851  
G01 X90.281 Y74.792  
G01 X90.477 Y74.737  
G01 X90.674 Y74.684  
G01 X90.872 Y74.635  
G01 X91.072 Y74.589  
G01 X91.272 Y74.546  
S0 
(</Figure 28>)
(<Figure 29 Color="#000000" ToolNr="1"> )
G00 X93.801 Y74.546  
S100 
G01 X96.855 Y77.381 F800 
G01 X93.765 Y80.468  
G01 X92.925 Y80.524  
G01 X92.121 Y80.689  
G01 X91.358 Y80.954  
G01 X90.644 Y81.312  
G01 X89.986 Y81.756  
G01 X89.393 Y82.278  
G01 X88.870 Y82.871  
G01 X88.426 Y83.528  
G01 X88.068 Y84.241  
G01 X87.803 Y85.003  
G01 X87.638 Y85.807  
G01 X87.582 Y86.645  
G01 X87.582 Y111.180  
G01 X87.574 Y111.391  
G01 X87.550 Y111.596  
G01 X87.511 Y111.795  
G01 X87.459 Y111.990  
G01 X87.394 Y112.179  
G01 X87.317 Y112.363  
G01 X87.230 Y112.542  
G01 X87.134 Y112.716  
G01 X87.029 Y112.885  
G01 X86.917 Y113.049  
G01 X86.799 Y113.209  
G01 X86.676 Y113.364  
G01 X86.562 Y113.504  
G01 X86.478 Y113.605  
G01 X86.409 Y113.683  
G01 X86.299 Y113.786  
G01 X86.201 Y113.867  
S0 
(</Figure 29>)
(<Figure 30 Color="#000000" ToolNr="1"> )
G00 X83.175 Y129.000  
S100 
G01 X83.175 Y114.000 F800 
S0 
(</Figure 30>)
(<Figure 31 Color="#000000" ToolNr="1"> )
G00 X66.000 Y114.000  
S100 
G01 X66.000 Y99.000 F800 
S0 
(</Figure 31>)
(<Figure 32 Color="#000000" ToolNr="1"> )
G00 X63.000 Y99.000  
S100 
G01 X61.349 Y99.000 F800 
G01 X61.349 Y92.823  
G01 X66.029 Y92.823  
G01 X66.648 Y92.792  
G01 X67.253 Y92.701  
G01 X67.841 Y92.552  
G01 X68.408 Y92.347  
G01 X68.950 Y92.090  
G01 X69.463 Y91.782  
G01 X69.945 Y91.426  
G01 X70.390 Y91.025  
G01 X70.796 Y90.580  
G01 X71.159 Y90.094  
G01 X71.475 Y89.571  
G01 X71.741 Y89.011  
G01 X71.949 Y88.427  
G01 X72.096 Y87.834  
G01 X72.184 Y87.234  
G01 X72.211 Y86.633  
G01 X72.181 Y86.034  
G01 X72.092 Y85.442  
G01 X71.947 Y84.862  
G01 X71.746 Y84.297  
G01 X71.490 Y83.752  
G01 X71.180 Y83.232  
G01 X70.816 Y82.739  
G01 X70.400 Y82.280  
G01 X69.940 Y81.864  
G01 X69.448 Y81.501  
G01 X68.926 Y81.191  
G01 X68.381 Y80.935  
G01 X67.816 Y80.734  
G01 X67.235 Y80.589  
G01 X66.642 Y80.500  
G01 X66.043 Y80.470  
G01 X65.441 Y80.498  
G01 X64.841 Y80.585  
G01 X64.247 Y80.732  
G01 X63.663 Y80.940  
G01 X63.102 Y81.205  
G01 X62.578 Y81.521  
G01 X62.092 Y81.884  
G01 X61.646 Y82.289  
G01 X61.244 Y82.734  
G01 X60.888 Y83.215  
G01 X60.580 Y83.728  
G01 X60.322 Y84.269  
G01 X60.117 Y84.835  
G01 X59.968 Y85.423  
G01 X59.877 Y86.027  
G01 X59.846 Y86.646  
G01 X59.846 Y111.181  
G01 X56.755 Y114.269  
G01 X53.663 Y111.181  
G01 X53.663 Y86.646  
G01 X53.725 Y85.408  
G01 X53.908 Y84.198  
G01 X54.206 Y83.024  
G01 X54.616 Y81.891  
G01 X55.131 Y80.809  
G01 X55.747 Y79.783  
G01 X56.460 Y78.822  
G01 X57.264 Y77.932  
G01 X58.155 Y77.121  
G01 X59.127 Y76.396  
G01 X60.176 Y75.765  
G01 X61.296 Y75.234  
G01 X61.441 Y75.175  
G01 X61.586 Y75.118  
G01 X61.731 Y75.063  
G01 X61.877 Y75.010  
G01 X62.024 Y74.959  
G01 X62.170 Y74.910  
G01 X62.317 Y74.863  
G01 X62.465 Y74.817  
G01 X62.612 Y74.774  
G01 X62.760 Y74.732  
G01 X62.908 Y74.693  
G01 X63.057 Y74.655  
G01 X63.206 Y74.620  
G01 X63.355 Y74.587  
G01 X63.504 Y74.554  
G01 X63.653 Y74.524  
G01 X63.803 Y74.495  
G01 X63.953 Y74.468  
S0 
(</Figure 32>)
(<Figure 33 Color="#000000" ToolNr="1"> )
G00 X67.554 Y74.388  
S100 
G01 X67.702 Y74.408 F800 
G01 X67.851 Y74.429  
G01 X67.999 Y74.451  
G01 X68.146 Y74.475  
G01 X68.294 Y74.501  
G01 X68.441 Y74.531  
G01 X69.025 Y74.662  
G01 X69.602 Y74.821  
G01 X70.172 Y75.008  
G01 X70.733 Y75.222  
G01 X71.284 Y75.464  
G01 X71.824 Y75.734  
G01 X72.352 Y76.030  
G01 X72.866 Y76.354  
G01 X73.367 Y76.703  
G01 X73.852 Y77.080  
G01 X74.321 Y77.482  
G01 X74.772 Y77.911  
G01 X75.604 Y78.830  
G01 X76.332 Y79.814  
G01 X76.952 Y80.856  
G01 X77.465 Y81.946  
G01 X77.867 Y83.076  
G01 X78.157 Y84.236  
G01 X78.333 Y85.420  
G01 X78.395 Y86.617  
G01 X78.339 Y87.820  
G01 X78.164 Y89.019  
G01 X77.870 Y90.207  
G01 X77.453 Y91.374  
G01 X77.200 Y91.943  
G01 X76.921 Y92.494  
G01 X76.617 Y93.027  
G01 X76.289 Y93.542  
G01 X75.938 Y94.037  
G01 X75.564 Y94.513  
G01 X75.168 Y94.969  
G01 X74.752 Y95.403  
G01 X74.316 Y95.816  
G01 X73.861 Y96.206  
G01 X73.388 Y96.574  
G01 X72.899 Y96.918  
G01 X72.648 Y97.081  
G01 X72.393 Y97.238  
G01 X72.134 Y97.389  
G01 X71.872 Y97.534  
G01 X71.606 Y97.672  
G01 X71.337 Y97.804  
G01 X71.064 Y97.930  
G01 X70.788 Y98.049  
G01 X70.509 Y98.161  
G01 X70.227 Y98.267  
G01 X69.942 Y98.366  
G01 X69.654 Y98.458  
G01 X69.364 Y98.543  
G01 X69.071 Y98.621  
G01 X68.776 Y98.692  
G01 X68.478 Y98.756  
G01 X68.179 Y98.812  
G01 X67.877 Y98.862  
G01 X67.573 Y98.904  
G01 X67.267 Y98.938  
G01 X66.960 Y98.965  
G01 X66.651 Y98.984  
G01 X66.341 Y98.996  
G01 X66.029 Y99.000  
S0 
(</Figure 33>)
(<Figure 34 Color="#000000" ToolNr="1"> )
G00 X35.116 Y86.650  
S100 
G01 X35.116 Y77.386 F800 
G01 X35.123 Y77.175  
G01 X35.144 Y76.967  
G01 X35.179 Y76.763  
G01 X35.226 Y76.565  
G01 X35.287 Y76.371  
G01 X35.359 Y76.183  
G01 X35.443 Y76.002  
G01 X35.538 Y75.826  
G01 X35.644 Y75.658  
G01 X35.760 Y75.498  
G01 X35.886 Y75.345  
G01 X36.021 Y75.201  
G01 X36.166 Y75.066  
G01 X36.318 Y74.940  
G01 X36.479 Y74.824  
G01 X36.647 Y74.718  
G01 X36.822 Y74.623  
G01 X37.004 Y74.539  
S0 
(</Figure 34>)
(<Figure 35 Color="#000000" ToolNr="1"> )
G00 X39.411 Y74.539  
S100 
G01 X39.502 Y74.580 F800 
G01 X39.681 Y74.669  
G01 X39.853 Y74.770  
G01 X40.017 Y74.881  
G01 X40.174 Y75.002  
G01 X40.322 Y75.132  
G01 X40.529 Y75.345  
G01 X40.655 Y75.498  
G01 X40.771 Y75.658  
G01 X40.877 Y75.826  
G01 X40.972 Y76.002  
G01 X41.056 Y76.183  
G01 X41.128 Y76.371  
G01 X41.188 Y76.565  
G01 X41.236 Y76.763  
G01 X41.270 Y76.967  
G01 X41.291 Y77.175  
G01 X41.299 Y77.386  
G01 X41.299 Y86.650  
G01 X41.313 Y87.073  
G01 X41.355 Y87.488  
G01 X41.424 Y87.895  
G01 X41.519 Y88.292  
G01 X41.640 Y88.679  
G01 X41.784 Y89.055  
G01 X41.952 Y89.418  
G01 X42.143 Y89.768  
G01 X42.354 Y90.104  
G01 X42.587 Y90.425  
G01 X42.839 Y90.730  
G01 X43.109 Y91.018  
G01 X43.398 Y91.288  
G01 X43.703 Y91.540  
G01 X44.024 Y91.772  
G01 X44.361 Y91.984  
G01 X44.711 Y92.174  
G01 X45.074 Y92.342  
G01 X45.450 Y92.486  
G01 X45.837 Y92.606  
G01 X46.235 Y92.702  
G01 X46.642 Y92.771  
G01 X47.058 Y92.813  
G01 X47.481 Y92.827  
G01 X52.161 Y92.827  
G01 X52.161 Y99.004  
G01 X50.000 Y99.004  
S0 
(</Figure 35>)
(<Figure 36 Color="#000000" ToolNr="1"> )
G00 X47.000 Y99.004  
S100 
G01 X46.794 Y98.992 F800 
G01 X46.606 Y98.979  
G01 X46.434 Y98.966  
G01 X46.273 Y98.953  
G01 X46.120 Y98.937  
G01 X45.972 Y98.920  
G01 X45.825 Y98.901  
G01 X45.676 Y98.879  
G01 X45.521 Y98.853  
G01 X45.357 Y98.824  
G01 X45.181 Y98.791  
G01 X44.989 Y98.753  
G01 X44.788 Y98.710  
G01 X44.589 Y98.664  
G01 X44.391 Y98.615  
G01 X44.194 Y98.563  
G01 X43.998 Y98.508  
G01 X43.804 Y98.449  
G01 X43.611 Y98.387  
G01 X43.420 Y98.322  
G01 X43.230 Y98.255  
G01 X43.041 Y98.184  
G01 X42.854 Y98.110  
G01 X42.668 Y98.033  
G01 X42.301 Y97.871  
G01 X41.941 Y97.698  
G01 X41.587 Y97.513  
G01 X41.240 Y97.318  
G01 X40.900 Y97.111  
G01 X40.568 Y96.894  
G01 X40.243 Y96.667  
G01 X39.925 Y96.430  
G01 X39.616 Y96.183  
G01 X39.315 Y95.927  
G01 X39.022 Y95.661  
G01 X38.738 Y95.386  
G01 X38.196 Y94.810  
G01 X37.692 Y94.200  
G01 X37.228 Y93.558  
G01 X36.804 Y92.886  
G01 X36.424 Y92.186  
G01 X36.088 Y91.459  
G01 X35.799 Y90.709  
G01 X35.558 Y89.935  
G01 X35.367 Y89.140  
G01 X35.229 Y88.327  
G01 X35.145 Y87.496  
G01 X35.116 Y86.650  
S0 
(</Figure 36>)
(<Figure 37 Color="#000000" ToolNr="1"> )
G00 X19.745 Y80.470  
S100 
G01 X19.126 Y80.501 F800 
G01 X18.520 Y80.592  
G01 X17.932 Y80.741  
G01 X17.365 Y80.946  
G01 X16.823 Y81.203  
G01 X16.310 Y81.511  
G01 X15.829 Y81.867  
G01 X15.384 Y82.269  
G01 X14.978 Y82.714  
G01 X14.615 Y83.200  
G01 X14.299 Y83.724  
G01 X14.033 Y84.284  
G01 X13.825 Y84.868  
G01 X13.677 Y85.461  
G01 X13.590 Y86.061  
G01 X13.562 Y86.662  
G01 X13.593 Y87.261  
G01 X13.681 Y87.853  
G01 X13.826 Y88.433  
G01 X14.027 Y88.998  
G01 X14.284 Y89.543  
G01 X14.594 Y90.063  
G01 X14.957 Y90.556  
G01 X15.373 Y91.015  
G01 X15.833 Y91.431  
G01 X16.326 Y91.794  
G01 X16.847 Y92.104  
G01 X17.393 Y92.360  
G01 X17.958 Y92.561  
G01 X18.539 Y92.706  
G01 X19.131 Y92.794  
G01 X19.730 Y92.824  
G01 X20.332 Y92.797  
G01 X20.933 Y92.709  
G01 X21.527 Y92.562  
G01 X22.111 Y92.354  
G01 X22.672 Y92.089  
G01 X23.196 Y91.773  
G01 X23.682 Y91.410  
G01 X24.127 Y91.005  
G01 X24.529 Y90.560  
G01 X24.886 Y90.079  
G01 X25.194 Y89.566  
G01 X25.452 Y89.025  
G01 X25.656 Y88.459  
G01 X25.805 Y87.871  
G01 X25.897 Y87.266  
G01 X25.928 Y86.647  
G01 X25.928 Y71.379  
G01 X25.924 Y71.167  
G01 X25.913 Y70.956  
G01 X25.896 Y70.747  
G01 X25.871 Y70.541  
G01 X25.840 Y70.336  
G01 X25.802 Y70.134  
G01 X25.758 Y69.934  
G01 X25.707 Y69.736  
G01 X25.650 Y69.542  
G01 X25.586 Y69.349  
G01 X25.517 Y69.160  
G01 X25.442 Y68.974  
G01 X25.361 Y68.791  
G01 X25.274 Y68.611  
G01 X25.181 Y68.434  
G01 X25.083 Y68.261  
G01 X24.980 Y68.091  
G01 X24.872 Y67.925  
G01 X24.758 Y67.763  
G01 X24.639 Y67.604  
G01 X24.516 Y67.450  
G01 X24.387 Y67.299  
G01 X24.254 Y67.153  
G01 X24.117 Y67.011  
G01 X23.975 Y66.873  
G01 X23.828 Y66.741  
G01 X23.678 Y66.612  
G01 X23.523 Y66.489  
G01 X23.364 Y66.370  
G01 X23.202 Y66.257  
G01 X23.035 Y66.148  
G01 X22.865 Y66.045  
G01 X22.692 Y65.947  
G01 X22.515 Y65.855  
G01 X22.335 Y65.768  
G01 X22.152 Y65.687  
G01 X21.965 Y65.612  
G01 X21.776 Y65.543  
G01 X21.584 Y65.480  
G01 X21.389 Y65.423  
G01 X21.191 Y65.372  
G01 X20.991 Y65.328  
G01 X20.789 Y65.290  
G01 X20.584 Y65.258  
G01 X20.377 Y65.234  
G01 X20.168 Y65.216  
G01 X19.958 Y65.206  
G01 X19.745 Y65.202  
G01 X19.326 Y65.174  
G01 X18.924 Y65.092  
G01 X18.542 Y64.959  
G01 X18.186 Y64.780  
G01 X17.857 Y64.558  
G01 X17.560 Y64.297  
G01 X17.299 Y64.000  
G01 X17.077 Y63.672  
G01 X16.898 Y63.315  
G01 X16.766 Y62.934  
G01 X16.684 Y62.533  
G01 X16.656 Y62.114  
G01 X16.657 Y62.008  
G01 X16.663 Y61.903  
G01 X16.671 Y61.799  
G01 X16.684 Y61.695  
G01 X16.699 Y61.593  
G01 X16.718 Y61.492  
G01 X16.740 Y61.392  
G01 X16.766 Y61.293  
G01 X16.794 Y61.196  
G01 X16.826 Y61.100  
G01 X16.861 Y61.005  
G01 X16.898 Y60.912  
G01 X16.939 Y60.821  
G01 X17.028 Y60.642  
G01 X17.129 Y60.471  
G01 X17.240 Y60.307  
G01 X17.361 Y60.150  
G01 X17.492 Y60.002  
G01 X17.638 Y59.858  
G01 X17.730 Y59.779  
G01 X17.834 Y59.697  
G01 X17.947 Y59.612  
G01 X18.067 Y59.527  
G01 X18.192 Y59.443  
G01 X18.318 Y59.362  
G01 X18.444 Y59.285  
G01 X18.566 Y59.213  
G01 X18.683 Y59.149  
G01 X18.792 Y59.094  
G01 X18.891 Y59.049  
S0 
(</Figure 37>)
(<Figure 38 Color="#000000" ToolNr="1"> )
G00 X21.992 Y59.029  
S100 
G01 X22.098 Y59.053 F800 
G01 X22.213 Y59.084  
G01 X22.335 Y59.122  
G01 X22.462 Y59.164  
G01 X22.593 Y59.209  
G01 X22.726 Y59.256  
G01 X22.858 Y59.305  
G01 X22.988 Y59.353  
G01 X23.114 Y59.399  
G01 X23.234 Y59.442  
G01 X23.346 Y59.481  
G01 X23.448 Y59.514  
G01 X23.544 Y59.546  
G01 X23.639 Y59.580  
G01 X23.733 Y59.618  
G01 X23.826 Y59.657  
G01 X23.918 Y59.698  
G01 X24.010 Y59.740  
G01 X24.101 Y59.783  
G01 X24.192 Y59.827  
G01 X24.283 Y59.870  
G01 X24.374 Y59.913  
G01 X24.466 Y59.954  
G01 X24.558 Y59.994  
G01 X24.925 Y60.156  
G01 X25.285 Y60.329  
G01 X25.639 Y60.514  
G01 X25.986 Y60.710  
G01 X26.326 Y60.916  
G01 X26.659 Y61.133  
G01 X26.984 Y61.360  
G01 X27.301 Y61.597  
G01 X27.611 Y61.844  
G01 X27.912 Y62.100  
G01 X28.205 Y62.366  
G01 X28.489 Y62.641  
G01 X28.764 Y62.925  
G01 X29.030 Y63.217  
G01 X29.287 Y63.518  
G01 X29.534 Y63.827  
G01 X29.771 Y64.145  
G01 X29.999 Y64.469  
G01 X30.216 Y64.802  
G01 X30.422 Y65.141  
G01 X30.618 Y65.488  
G01 X30.803 Y65.841  
G01 X30.976 Y66.201  
G01 X31.139 Y66.568  
G01 X31.289 Y66.940  
G01 X31.428 Y67.319  
G01 X31.555 Y67.703  
G01 X31.669 Y68.092  
G01 X31.770 Y68.487  
G01 X31.859 Y68.887  
G01 X31.935 Y69.291  
G01 X31.998 Y69.700  
G01 X32.047 Y70.114  
G01 X32.082 Y70.531  
G01 X32.103 Y70.952  
G01 X32.111 Y71.377  
G01 X32.111 Y86.645  
G01 X32.049 Y87.883  
G01 X31.866 Y89.093  
G01 X31.567 Y90.267  
G01 X31.158 Y91.400  
G01 X30.643 Y92.482  
G01 X30.026 Y93.508  
G01 X29.314 Y94.469  
G01 X28.509 Y95.359  
G01 X27.619 Y96.170  
G01 X26.647 Y96.895  
G01 X25.598 Y97.527  
G01 X24.478 Y98.058  
G01 X24.333 Y98.117  
G01 X24.188 Y98.174  
G01 X24.042 Y98.229  
G01 X23.896 Y98.282  
G01 X23.750 Y98.333  
G01 X23.604 Y98.382  
G01 X23.457 Y98.430  
G01 X23.309 Y98.476  
G01 X23.162 Y98.519  
G01 X23.014 Y98.560  
G01 X22.865 Y98.599  
G01 X22.717 Y98.637  
G01 X22.568 Y98.672  
G01 X22.419 Y98.705  
G01 X22.270 Y98.738  
G01 X22.121 Y98.768  
G01 X21.971 Y98.797  
G01 X21.821 Y98.824  
G01 X21.671 Y98.848  
G01 X21.521 Y98.871  
G01 X21.371 Y98.891  
G01 X21.221 Y98.911  
G01 X21.070 Y98.928  
G01 X20.920 Y98.944  
S0 
(</Figure 38>)
(<Figure 39 Color="#000000" ToolNr="1"> )
G00 X18.010 Y98.864  
S100 
G01 X17.877 Y98.846 F800 
G01 X17.768 Y98.831  
G01 X17.622 Y98.809  
G01 X17.521 Y98.792  
G01 X17.403 Y98.771  
G01 X17.260 Y98.743  
G01 X17.113 Y98.711  
G01 X16.967 Y98.678  
G01 X16.822 Y98.644  
G01 X16.676 Y98.608  
G01 X16.531 Y98.570  
G01 X16.387 Y98.531  
G01 X16.243 Y98.489  
G01 X16.100 Y98.446  
G01 X15.957 Y98.401  
G01 X15.814 Y98.354  
G01 X15.672 Y98.306  
G01 X15.531 Y98.256  
G01 X15.390 Y98.204  
G01 X15.250 Y98.150  
G01 X15.110 Y98.095  
G01 X14.971 Y98.038  
G01 X14.833 Y97.979  
G01 X14.695 Y97.918  
G01 X14.558 Y97.856  
G01 X14.422 Y97.792  
G01 X14.286 Y97.726  
G01 X14.151 Y97.659  
G01 X14.017 Y97.590  
G01 X13.883 Y97.519  
G01 X13.750 Y97.447  
G01 X13.618 Y97.373  
G01 X13.487 Y97.297  
G01 X13.357 Y97.219  
G01 X13.227 Y97.140  
G01 X13.099 Y97.059  
G01 X12.971 Y96.977  
G01 X12.844 Y96.892  
G01 X12.718 Y96.806  
G01 X12.593 Y96.719  
G01 X12.469 Y96.630  
G01 X12.345 Y96.539  
G01 X12.223 Y96.447  
G01 X12.102 Y96.353  
G01 X11.981 Y96.257  
G01 X11.862 Y96.159  
G01 X11.744 Y96.060  
G01 X11.627 Y95.959  
G01 X11.511 Y95.857  
G01 X11.396 Y95.753  
G01 X11.282 Y95.648  
G01 X11.169 Y95.541  
G01 X11.057 Y95.432  
G01 X10.170 Y94.458  
G01 X9.442 Y93.473  
G01 X8.822 Y92.432  
G01 X8.310 Y91.342  
G01 X7.908 Y90.212  
G01 X7.617 Y89.051  
G01 X7.441 Y87.868  
G01 X7.379 Y86.671  
G01 X7.435 Y85.468  
G01 X7.609 Y84.268  
G01 X7.904 Y83.081  
G01 X8.321 Y81.914  
G01 X8.852 Y80.794  
G01 X9.484 Y79.746  
G01 X10.210 Y78.775  
G01 X11.022 Y77.885  
G01 X11.913 Y77.081  
G01 X12.875 Y76.369  
G01 X13.902 Y75.753  
G01 X14.986 Y75.238  
G01 X16.119 Y74.829  
G01 X17.295 Y74.531  
G01 X18.506 Y74.349  
G01 X19.745 Y74.287  
G01 X22.837 Y74.287  
G01 X25.928 Y77.377  
G01 X22.837 Y80.464  
G01 X19.745 Y80.464  
S0 
(</Figure 39>)
(<Figure 40 Color="#000000" ToolNr="1"> )
G00 X63.000 Y114.000  
S100 
G01 X63.000 Y99.000 F800 
S0 
(</Figure 40>)
(<Figure 41 Color="#000000" ToolNr="1"> )
G00 X50.000 Y114.000  
S100 
G01 X50.000 Y99.000 F800 
S0 
(</Figure 41>)
(<Figure 42 Color="#000000" ToolNr="1"> )
G00 X47.000 Y114.000  
S100 
G01 X47.000 Y99.000 F800 
S0 
(</Figure 42>)
(<Figure 43 Color="#000000" ToolNr="1"> )
G00 X21.000 Y114.000  
S100 
G01 X20.920 Y98.945 F800 
S0 
(</Figure 43>)
(<Figure 44 Color="#000000" ToolNr="1"> )
G00 X18.000 Y114.000  
S100 
G01 X18.010 Y98.865 F800 
S0 
(</Figure 44>)
(<Figure 45 Color="#000000" ToolNr="1"> )
G00 X35.000 Y44.000  
S100 
G01 X35.000 Y89.000 F800 
S0 
(</Figure 45>)
(<Figure 46 Color="#000000" ToolNr="1"> )
G00 X97.000 Y44.000  
S100 
G01 X97.000 Y89.000 F800 
S0 
(</Figure 46>)
(</Group 4>)
M05
G0X0Y0 (Setup - GCode-Footer)
M30
